(1)
(T1  D=3.175 CR=0. - ZMIN=-5.5 - FLAT END MILL)
G0 G90 G94 G17
G21
G53 Z0.

(BORE1_8)
M5
M9
T1
S12000 M3
G4 P4.
G55
M9
G0 X32.24 Y54.716
Z6.
Z1.
G1 Z-0.683 F360.
G18 G2 X32.557 Z-1. I0.317 K0.
G1 X32.716
G17 G2 X32.932 Y54.5 I0. J-0.216
X32.068 Z-1.5 I-0.432 J0.
X32.932 Z-2. I0.432 J0.
X32.068 Z-2.5 I-0.432 J0.
X32.932 Z-3. I0.432 J0.
X32.068 Z-3.5 I-0.432 J0.
X32.932 Z-4. I0.432 J0.
X32.068 Z-4.5 I-0.432 J0.
X32.932 Z-5. I0.432 J0.
X32.068 Z-5.5 I-0.432 J0.
X32.932 I0.432 J0.
X32.068 I-0.432 J0.
X32.284 Y54.716 I0.216 J0.
G1 X32.443
G18 G2 X32.76 Z-5.182 I0. K0.318
G0 Z3.
X42.24 Y35.716
Z1.
G1 Z-0.683 F360.
G2 X42.557 Z-1. I0.317 K0.
G1 X42.716
G17 G2 X42.932 Y35.5 I0. J-0.216
X42.068 Z-1.5 I-0.432 J0.
X42.932 Z-2. I0.432 J0.
X42.068 Z-2.5 I-0.432 J0.
X42.932 Z-3. I0.432 J0.
X42.068 Z-3.5 I-0.432 J0.
X42.932 Z-4. I0.432 J0.
X42.068 Z-4.5 I-0.432 J0.
X42.932 Z-5. I0.432 J0.
X42.068 Z-5.5 I-0.432 J0.
X42.932 I0.432 J0.
X42.068 I-0.432 J0.
X42.284 Y35.716 I0.216 J0.
G1 X42.443
G18 G2 X42.76 Z-5.182 I0. K0.318
G0 Z3.
X22.24
Z1.
G1 Z-0.683 F360.
G2 X22.557 Z-1. I0.317 K0.
G1 X22.716
G17 G2 X22.932 Y35.5 I0. J-0.216
X22.068 Z-1.5 I-0.432 J0.
X22.932 Z-2. I0.432 J0.
X22.068 Z-2.5 I-0.432 J0.
X22.932 Z-3. I0.432 J0.
X22.068 Z-3.5 I-0.432 J0.
X22.933 Z-4. I0.432 J0.
X22.067 Z-4.5 I-0.433 J0.
X22.933 Z-5. I0.433 J0.
X22.067 Z-5.5 I-0.433 J0.
X22.933 I0.433 J0.
X22.067 I-0.433 J0.
X22.284 Y35.716 I0.216 J0.
G1 X22.442
G18 G2 X22.76 Z-5.182 I0. K0.318
G0 Z6.
G17

M9
G53 Z0.
M30
