(1001)
(T1  D=0.396 CR=0. - ZMIN=-0.4 - FLAT END MILL)
G0 G90 G94 G17
G21
G53 Z0.

(CHANNELS1_64)
M5
M9
T1
S12000 M3
G4 P4.
G55
M9
G0 X34.576 Y33.671
Z6.
Z3.
G1 Z2.5 F500.
Z-0.25 F36.
X30.392 Y33.706 F500.
X30.401 Y33.709
X34.585 Y33.675
X34.576 Y33.671
Z-0.4 F36.
X30.392 Y33.706 F500.
X30.401 Y33.709
X34.585 Y33.675
X34.783 Y33.673
X34.803 Z-0.395
X34.817 Z-0.38
X34.823 Z-0.36
G0 Z6.
X30.401 Y34.709
Z3.
G1 Z2.5 F500.
Z-0.25 F36.
X34.585 Y34.675 F500.
Y34.671
X30.392 Y34.706
X30.401 Y34.709
Z-0.4 F36.
X34.585 Y34.675 F500.
Y34.671
X30.392 Y34.706
X30.193 Y34.707
X30.174 Z-0.395
X30.159 Y34.708 Z-0.38
X30.154 Z-0.36
G0 Z6.
X30.401 Y35.709
Z3.
G1 Z2.5 F500.
Z-0.25 F36.
X34.585 Y35.675 F500.
X34.576 Y35.671
X30.392 Y35.706
X30.401 Y35.709
Z-0.4 F36.
X34.585 Y35.675 F500.
X34.576 Y35.671
X30.392 Y35.706
X30.193 Y35.707
X30.174 Y35.708 Z-0.395
X30.159 Z-0.38
X30.154 Z-0.36
G0 Z6.
X39.431 Y44.077
Z3.
G1 Z2.5 F500.
Z-0.25 F36.
X37.368 Y47.718 F500.
X37.376 Y47.712
X39.438 Y44.071
X39.431 Y44.077
Z-0.4 F36.
X37.368 Y47.718 F500.
X37.376 Y47.712
X39.438 Y44.071
X39.536 Y43.899
X39.546 Y43.882 Z-0.395
X39.553 Y43.869 Z-0.38
X39.555 Y43.864 Z-0.36
G0 Z6.
X40.297 Y44.577
Z3.
G1 Z2.5 F500.
Z-0.25 F36.
X38.234 Y48.218 F500.
X38.238 Y48.22
X40.304 Y44.571
X40.297 Y44.577
Z-0.4 F36.
X38.234 Y48.218 F500.
X38.238 Y48.22
X40.304 Y44.571
X40.402 Y44.399
X40.412 Y44.382 Z-0.395
X40.419 Y44.369 Z-0.38
X40.422 Y44.364 Z-0.36
G0 Z6.
X41.163 Y45.077
Z3.
G1 Z2.5 F500.
Z-0.25 F36.
X39.1 Y48.718 F500.
X39.108 Y48.712
X41.17 Y45.071
X41.163 Y45.077
Z-0.4 F36.
X39.1 Y48.718 F500.
X39.108 Y48.712
X41.17 Y45.071
X41.268 Y44.899
X41.278 Y44.882 Z-0.395
X41.285 Y44.869 Z-0.38
X41.288 Y44.864 Z-0.36
G0 Z6.
X25.548 Y44.117
Z3.
G1 Z2.5 F500.
Z-0.25 F36.
X27.67 Y47.723 F500.
X27.669 Y47.714
X25.547 Y44.107
X25.548 Y44.117
Z-0.4 F36.
X27.67 Y47.723 F500.
X27.669 Y47.714
X25.547 Y44.107
X25.446 Y43.936
X25.436 Y43.919 Z-0.395
X25.429 Y43.907 Z-0.38
X25.426 Y43.902 Z-0.36
G0 Z6.
X24.682 Y44.617
Z3.
G1 Z2.5 F500.
Z-0.25 F36.
X26.804 Y48.223 F500.
X26.803 Y48.214
X24.68 Y44.607
X24.682 Y44.617
Z-0.4 F36.
X26.804 Y48.223 F500.
X26.803 Y48.214
X24.68 Y44.607
X24.58 Y44.436
X24.57 Y44.419 Z-0.395
X24.563 Y44.407 Z-0.38
X24.56 Y44.402 Z-0.36
G0 Z6.
X25.937 Y48.714
Z3.
G1 Z2.5 F500.
Z-0.25 F36.
X23.814 Y45.107 F500.
X23.816 Y45.117
X25.938 Y48.723
X25.937 Y48.714
Z-0.4 F36.
X23.814 Y45.107 F500.
X23.816 Y45.117
X25.938 Y48.723
X26.039 Y48.894
X26.049 Y48.911 Z-0.395
X26.056 Y48.924 Z-0.38
X26.059 Y48.928 Z-0.36
G0 Z6.

M9
G53 Z0.
M30
