(1001)
(T1  D=0.396 CR=0. - ZMIN=-1. - FLAT END MILL)
G0 G90 G94 G17
G21
G53 Z0.

(CHAMBERS1_64)
M5
M9
T1
S12000 M3
G4 P4.
G55
M9
G0 X22.172 Y36.553
Z6.
Z3.
Z2.54
G1 Z2.5 F500.
G2 X22.488 Y36.758 Z2.48 I0.158 J0.102
X22.172 Y36.553 Z2.459 I-0.158 J-0.102
X22.488 Y36.758 Z2.438 I0.158 J0.102
X22.172 Y36.553 Z2.418 I-0.158 J-0.102
X22.488 Y36.758 Z2.397 I0.158 J0.102
X22.172 Y36.553 Z2.376 I-0.158 J-0.102
X22.488 Y36.758 Z2.356 I0.158 J0.102
X22.172 Y36.553 Z2.335 I-0.158 J-0.102
X22.488 Y36.758 Z2.314 I0.158 J0.102
X22.172 Y36.553 Z2.294 I-0.158 J-0.102
X22.488 Y36.758 Z2.273 I0.158 J0.102
X22.172 Y36.553 Z2.252 I-0.158 J-0.102
X22.488 Y36.758 Z2.232 I0.158 J0.102
X22.172 Y36.553 Z2.211 I-0.158 J-0.102
X22.488 Y36.758 Z2.191 I0.158 J0.102
X22.172 Y36.553 Z2.17 I-0.158 J-0.102
X22.488 Y36.758 Z2.149 I0.158 J0.102
X22.172 Y36.553 Z2.129 I-0.158 J-0.102
X22.488 Y36.758 Z2.108 I0.158 J0.102
X22.172 Y36.553 Z2.087 I-0.158 J-0.102
X22.488 Y36.758 Z2.067 I0.158 J0.102
X22.172 Y36.553 Z2.046 I-0.158 J-0.102
X22.488 Y36.758 Z2.025 I0.158 J0.102
X22.172 Y36.553 Z2.005 I-0.158 J-0.102
X22.488 Y36.758 Z1.984 I0.158 J0.102
X22.172 Y36.553 Z1.963 I-0.158 J-0.102
X22.488 Y36.758 Z1.943 I0.158 J0.102
X22.172 Y36.553 Z1.922 I-0.158 J-0.102
X22.488 Y36.758 Z1.901 I0.158 J0.102
X22.172 Y36.553 Z1.881 I-0.158 J-0.102
X22.488 Y36.758 Z1.86 I0.158 J0.102
X22.172 Y36.553 Z1.84 I-0.158 J-0.102
X22.488 Y36.758 Z1.819 I0.158 J0.102
X22.172 Y36.553 Z1.798 I-0.158 J-0.102
X22.488 Y36.758 Z1.778 I0.158 J0.102
X22.172 Y36.553 Z1.757 I-0.158 J-0.102
X22.488 Y36.758 Z1.736 I0.158 J0.102
X22.172 Y36.553 Z1.716 I-0.158 J-0.102
X22.488 Y36.758 Z1.695 I0.158 J0.102
X22.172 Y36.553 Z1.674 I-0.158 J-0.102
X22.488 Y36.758 Z1.654 I0.158 J0.102
X22.172 Y36.553 Z1.633 I-0.158 J-0.102
X22.488 Y36.758 Z1.612 I0.158 J0.102
X22.172 Y36.553 Z1.592 I-0.158 J-0.102
X22.488 Y36.758 Z1.571 I0.158 J0.102
X22.172 Y36.553 Z1.55 I-0.158 J-0.102
X22.488 Y36.758 Z1.53 I0.158 J0.102
X22.172 Y36.553 Z1.509 I-0.158 J-0.102
X22.488 Y36.758 Z1.488 I0.158 J0.102
X22.172 Y36.553 Z1.468 I-0.158 J-0.102
X22.488 Y36.758 Z1.447 I0.158 J0.102
X22.172 Y36.553 Z1.427 I-0.158 J-0.102
X22.488 Y36.758 Z1.406 I0.158 J0.102
X22.172 Y36.553 Z1.385 I-0.158 J-0.102
X22.488 Y36.758 Z1.365 I0.158 J0.102
X22.172 Y36.553 Z1.344 I-0.158 J-0.102
X22.488 Y36.758 Z1.323 I0.158 J0.102
X22.172 Y36.553 Z1.303 I-0.158 J-0.102
X22.488 Y36.758 Z1.282 I0.158 J0.102
X22.172 Y36.553 Z1.261 I-0.158 J-0.102
X22.488 Y36.758 Z1.241 I0.158 J0.102
X22.172 Y36.553 Z1.22 I-0.158 J-0.102
X22.488 Y36.758 Z1.199 I0.158 J0.102
X22.172 Y36.553 Z1.179 I-0.158 J-0.102
X22.488 Y36.758 Z1.158 I0.158 J0.102
X22.172 Y36.553 Z1.137 I-0.158 J-0.102
X22.488 Y36.758 Z1.117 I0.158 J0.102
X22.172 Y36.553 Z1.096 I-0.158 J-0.102
X22.488 Y36.758 Z1.076 I0.158 J0.102
X22.172 Y36.553 Z1.055 I-0.158 J-0.102
X22.488 Y36.758 Z1.034 I0.158 J0.102
X22.172 Y36.553 Z1.014 I-0.158 J-0.102
X22.488 Y36.758 Z0.993 I0.158 J0.102
X22.172 Y36.553 Z0.972 I-0.158 J-0.102
X22.488 Y36.758 Z0.952 I0.158 J0.102
X22.172 Y36.553 Z0.931 I-0.158 J-0.102
X22.488 Y36.758 Z0.91 I0.158 J0.102
X22.172 Y36.553 Z0.89 I-0.158 J-0.102
X22.488 Y36.758 Z0.869 I0.158 J0.102
X22.172 Y36.553 Z0.848 I-0.158 J-0.102
X22.488 Y36.758 Z0.828 I0.158 J0.102
X22.172 Y36.553 Z0.807 I-0.158 J-0.102
X22.488 Y36.758 Z0.786 I0.158 J0.102
X22.172 Y36.553 Z0.766 I-0.158 J-0.102
X22.488 Y36.758 Z0.745 I0.158 J0.102
X22.172 Y36.553 Z0.724 I-0.158 J-0.102
X22.488 Y36.758 Z0.704 I0.158 J0.102
X22.172 Y36.553 Z0.683 I-0.158 J-0.102
X22.488 Y36.758 Z0.663 I0.158 J0.102
X22.172 Y36.553 Z0.642 I-0.158 J-0.102
X22.488 Y36.758 Z0.621 I0.158 J0.102
X22.172 Y36.553 Z0.601 I-0.158 J-0.102
X22.488 Y36.758 Z0.58 I0.158 J0.102
X22.172 Y36.553 Z0.559 I-0.158 J-0.102
X22.488 Y36.758 Z0.539 I0.158 J0.102
X22.172 Y36.553 Z0.518 I-0.158 J-0.102
X22.488 Y36.758 Z0.497 I0.158 J0.102
X22.172 Y36.553 Z0.477 I-0.158 J-0.102
X22.488 Y36.758 Z0.456 I0.158 J0.102
X22.172 Y36.553 Z0.435 I-0.158 J-0.102
X22.488 Y36.758 Z0.415 I0.158 J0.102
X22.172 Y36.553 Z0.394 I-0.158 J-0.102
X22.488 Y36.758 Z0.373 I0.158 J0.102
X22.172 Y36.553 Z0.353 I-0.158 J-0.102
X22.488 Y36.758 Z0.332 I0.158 J0.102
X22.172 Y36.553 Z0.312 I-0.158 J-0.102
X22.488 Y36.758 Z0.291 I0.158 J0.102
X22.172 Y36.553 Z0.27 I-0.158 J-0.102
X22.488 Y36.758 Z0.25 I0.158 J0.102
X22.172 Y36.553 Z0.229 I-0.158 J-0.102
X22.488 Y36.758 Z0.208 I0.158 J0.102
X22.172 Y36.553 Z0.188 I-0.158 J-0.102
X22.488 Y36.758 Z0.167 I0.158 J0.102
X22.172 Y36.553 Z0.146 I-0.158 J-0.102
X22.488 Y36.758 Z0.126 I0.158 J0.102
X22.172 Y36.553 Z0.105 I-0.158 J-0.102
X22.488 Y36.758 Z0.084 I0.158 J0.102
X22.172 Y36.553 Z0.064 I-0.158 J-0.102
X22.488 Y36.758 Z0.043 I0.158 J0.102
X22.172 Y36.553 Z0.022 I-0.158 J-0.102
X22.488 Y36.758 Z0.002 I0.158 J0.102
X22.172 Y36.553 Z-0.019 I-0.158 J-0.102
X22.488 Y36.758 Z-0.039 I0.158 J0.102
X22.172 Y36.553 Z-0.06 I-0.158 J-0.102
X22.488 Y36.758 Z-0.081 I0.158 J0.102
X22.172 Y36.553 Z-0.101 I-0.158 J-0.102
X22.488 Y36.758 Z-0.122 I0.158 J0.102
X22.172 Y36.553 Z-0.143 I-0.158 J-0.102
X22.488 Y36.758 Z-0.163 I0.158 J0.102
X22.172 Y36.553 Z-0.184 I-0.158 J-0.102
X22.488 Y36.758 Z-0.205 I0.158 J0.102
X22.172 Y36.553 Z-0.225 I-0.158 J-0.102
X22.488 Y36.758 Z-0.246 I0.158 J0.102
X22.518 Y36.656 Z-0.25 I-0.158 J-0.102
X22.142 I-0.188 J0.
X22.518 I0.188 J0.
G1 X22.535 Y36.583
X22.545 Y36.546
X22.538 Y36.472
X22.494 Y36.411
X22.432 Y36.369
X22.36 Y36.348
X22.285 Y36.347
X22.212 Y36.365
X22.146 Y36.4
X22.09 Y36.451
X22.048 Y36.513
X22.023 Y36.584
X22.014 Y36.658
X22.024 Y36.733
X22.05 Y36.803
X22.093 Y36.864
X22.149 Y36.914
X22.215 Y36.95
X22.288 Y36.968
X22.363 Y36.97
X22.436 Y36.953
X22.503 Y36.92
X22.618 Y36.823
X22.669 Y36.682
X22.693 Y36.534
X22.657 Y36.389
X22.558 Y36.275
X22.424 Y36.209
X22.274 Y36.198
X22.13 Y36.239
X22.005 Y36.323
X21.917 Y36.444
X21.871 Y36.587
Y36.737
X21.922 Y36.878
X22.014 Y36.996
X22.138 Y37.08
X22.283 Y37.118
X22.433 Y37.109
X22.572 Y37.053
X22.693 Y36.964
X22.773 Y36.837
X22.821 Y36.695
X22.844 Y36.547
X22.819 Y36.399
X22.748 Y36.266
X22.646 Y36.157
X22.516 Y36.082
X22.369 Y36.052
X22.219 Y36.058
X22.075 Y36.099
X21.946 Y36.175
X21.843 Y36.285
X21.768 Y36.415
X21.724 Y36.558
X21.715 Y36.708
X21.75 Y36.854
X21.817 Y36.988
X21.911 Y37.105
X22.03 Y37.195
X22.171 Y37.248
X22.32 Y37.267
X22.469 Y37.254
X22.611 Y37.205
X22.737 Y37.124
X22.839 Y37.014
X22.915 Y36.885
X22.966 Y36.744
X22.994 Y36.596
X22.984 Y36.447
X22.939 Y36.303
X22.865 Y36.173
X22.767 Y36.06
X22.643 Y35.975
X22.502 Y35.923
X22.354 Y35.901
X22.204 Y35.908
X22.058 Y35.942
X21.923 Y36.008
X21.806 Y36.101
X21.708 Y36.216
X21.633 Y36.345
X21.582 Y36.486
X21.564 Y36.635
X21.577 Y36.785
X21.618 Y36.929
X21.685 Y37.063
X21.774 Y37.184
X21.888 Y37.282
X22.019 Y37.354
X22.162 Y37.399
X22.311 Y37.418
X22.461 Y37.411
X22.606 Y37.371
X22.74 Y37.305
X22.86 Y37.215
X22.961 Y37.104
X23.041 Y36.977
X23.098 Y36.838
X23.135 Y36.693
X23.144 Y36.543
X23.126 Y36.394
X23.082 Y36.251
X23.013 Y36.117
X22.921 Y35.999
X22.807 Y35.901
X22.677 Y35.826
X22.536 Y35.776
X22.388 Y35.75
X22.238
X22.09 Y35.774
X21.949 Y35.824
X21.818 Y35.898
X21.701 Y35.992
X21.6 Y36.103
X21.519 Y36.229
X21.46 Y36.367
X21.424 Y36.512
X21.413 Y36.662
X21.427 Y36.811
X21.465 Y36.957
X21.525 Y37.094
X21.607 Y37.22
X21.708 Y37.33
X21.827 Y37.422
X21.959 Y37.493
X22.101 Y37.543
X22.248 Y37.568
X22.398 Y37.57
X22.547 Y37.547
X22.689 Y37.5
X22.823 Y37.432
X22.945 Y37.345
X23.05 Y37.238
X23.138 Y37.116
X23.206 Y36.983
X23.257 Y36.841
X23.287 Y36.695
X23.296 Y36.545
X23.283 Y36.395
X23.245 Y36.25
X23.186 Y36.113
X23.106 Y35.986
X23.008 Y35.872
X22.893 Y35.776
X22.765 Y35.698
X22.626 Y35.642
X22.48 Y35.608
X22.33 Y35.595
X22.18 Y35.603
X22.033 Y35.633
X21.892 Y35.683
X21.759 Y35.752
X21.638 Y35.841
X21.531 Y35.946
X21.44 Y36.066
X21.366 Y36.196
X21.31 Y36.335
X21.274 Y36.481
X21.259 Y36.63
X21.267 Y36.78
X21.296 Y36.927
X21.345 Y37.069
X21.413 Y37.203
X21.498 Y37.326
X21.599 Y37.437
X21.715 Y37.532
X21.844 Y37.609
X21.982 Y37.667
X22.127 Y37.704
X22.276 Y37.722
X22.426 Y37.72
X22.574 Y37.697
X22.718 Y37.655
X22.854 Y37.592
X22.981 Y37.511
X23.095 Y37.414
X23.194 Y37.301
X23.279 Y37.177
X23.347 Y37.044
X23.399 Y36.903
X23.434 Y36.757
X23.45 Y36.608
X23.445 Y36.458
X23.421 Y36.31
X23.377 Y36.167
X23.315 Y36.03
X23.236 Y35.903
X23.14 Y35.787
X23.03 Y35.686
X22.906 Y35.601
X22.772 Y35.534
X22.63 Y35.485
X22.483 Y35.454
X22.334 Y35.442
X22.184 Y35.447
X22.036 Y35.472
X21.893 Y35.516
X21.756 Y35.578
X21.628 Y35.656
X21.511 Y35.75
X21.406 Y35.857
X21.315 Y35.977
X21.238 Y36.105
X21.178 Y36.243
X21.136 Y36.387
X21.112 Y36.535
X21.107 Y36.685
X21.121 Y36.834
X21.152 Y36.981
X21.201 Y37.123
X21.266 Y37.258
X21.347 Y37.384
X21.443 Y37.499
X21.553 Y37.601
X21.675 Y37.689
X21.807 Y37.761
X21.946 Y37.816
X22.091 Y37.854
X22.24 Y37.875
X22.39 Y37.878
X22.539 Y37.861
X22.685 Y37.827
X22.826 Y37.776
X22.959 Y37.708
X23.084 Y37.625
X23.198 Y37.527
X23.3 Y37.417
X23.388 Y37.296
X23.461 Y37.165
X23.52 Y37.027
X23.564 Y36.883
X23.592 Y36.736
X23.603 Y36.586
X23.597 Y36.437
X23.574 Y36.288
X23.533 Y36.144
X23.476 Y36.005
X23.402 Y35.875
X23.314 Y35.753
X23.213 Y35.643
X23.098 Y35.546
X22.973 Y35.463
X22.839 Y35.395
X22.699 Y35.343
X22.553 Y35.308
X22.404 Y35.29
X22.254 Y35.288
X22.105 Y35.303
X21.958 Y35.334
X21.816 Y35.382
X21.68 Y35.444
X21.551 Y35.522
X21.432 Y35.613
X21.324 Y35.717
X21.228 Y35.832
X21.145 Y35.957
X21.075 Y36.09
X21.021 Y36.23
X20.982 Y36.375
X20.959 Y36.523
X20.952 Y36.673
X20.962 Y36.822
X20.989 Y36.97
X21.032 Y37.114
X21.09 Y37.252
X21.162 Y37.384
X21.248 Y37.507
X21.346 Y37.62
X21.457 Y37.721
X21.578 Y37.81
X21.708 Y37.885
X21.845 Y37.945
X21.989 Y37.989
X22.136 Y38.018
X22.285 Y38.031
X22.435 Y38.028
X22.584 Y38.009
X22.73 Y37.975
X22.871 Y37.925
X23.007 Y37.86
X23.134 Y37.78
X23.252 Y37.688
X23.359 Y37.583
X23.455 Y37.468
X23.539 Y37.344
X23.61 Y37.211
X23.668 Y37.073
X23.712 Y36.93
X23.742 Y36.783
X23.757 Y36.633
X23.756 Y36.483
X23.739 Y36.334
X23.708 Y36.188
X23.661 Y36.045
X23.599 Y35.909
X23.524 Y35.779
X23.435 Y35.658
X23.335 Y35.546
X23.223 Y35.446
X23.101 Y35.359
X22.97 Y35.286
X22.832 Y35.226
X22.689 Y35.181
X22.543 Y35.151
X22.393 Y35.135
X22.243 Y35.134
X22.094 Y35.148
X21.947 Y35.177
X21.803 Y35.22
X21.665 Y35.278
X21.533 Y35.35
X21.409 Y35.434
X21.294 Y35.53
X21.189 Y35.637
X21.094 Y35.754
X21.012 Y35.879
X20.941 Y36.011
X20.884 Y36.15
X20.841 Y36.294
X20.813 Y36.441
X20.799 Y36.59
X20.801 Y36.74
X20.817 Y36.89
X20.847 Y37.036
X20.892 Y37.18
X20.95 Y37.318
X21.021 Y37.45
X21.104 Y37.575
X21.2 Y37.691
X21.306 Y37.796
X21.423 Y37.89
X21.548 Y37.973
X21.681 Y38.043
X21.82 Y38.099
X21.964 Y38.142
X22.111 Y38.171
X22.26 Y38.185
X22.41 Y38.186
X22.559 Y38.171
X22.706 Y38.141
X22.85 Y38.098
X22.989 Y38.041
X23.122 Y37.971
X23.247 Y37.889
X23.364 Y37.795
X23.471 Y37.69
X23.568 Y37.576
X23.654 Y37.453
X23.729 Y37.323
X23.791 Y37.186
X23.841 Y37.045
X23.878 Y36.899
X23.902 Y36.751
X23.912 Y36.602
X23.908 Y36.452
X23.891 Y36.303
X23.859 Y36.156
X23.814 Y36.013
X23.756 Y35.875
X23.685 Y35.743
X23.601 Y35.618
X23.506 Y35.502
X23.4 Y35.396
X23.285 Y35.3
X23.161 Y35.215
X23.03 Y35.143
X22.892 Y35.083
X22.75 Y35.036
X22.603 Y35.003
X22.455 Y34.983
X22.305 Y34.978
X22.155 Y34.985
X22.006 Y35.006
X21.86 Y35.04
X21.718 Y35.087
X21.581 Y35.148
X21.449 Y35.22
X21.325 Y35.304
X21.208 Y35.398
X21.1 Y35.502
X21.003 Y35.617
X20.916 Y35.739
X20.84 Y35.868
X20.775 Y36.003
X20.723 Y36.144
X20.684 Y36.289
X20.658 Y36.436
X20.645 Y36.586
Y36.736
X20.659 Y36.885
X20.686 Y37.033
X20.726 Y37.177
X20.78 Y37.317
X20.844 Y37.453
X20.921 Y37.582
X21.008 Y37.704
X21.107 Y37.817
X21.215 Y37.921
X21.331 Y38.015
X21.456 Y38.099
X21.588 Y38.171
X21.725 Y38.23
X21.868 Y38.277
X22.014 Y38.311
X22.162 Y38.333
X22.312 Y38.342
X22.462 Y38.337
X22.611 Y38.319
X22.758 Y38.288
X22.901 Y38.244
X23.04 Y38.188
X23.174 Y38.121
X23.301 Y38.041
X23.421 Y37.95
X23.532 Y37.85
X23.634 Y37.74
X23.727 Y37.622
X23.809 Y37.497
X23.88 Y37.365
X23.941 Y37.227
X23.991 Y37.084
X24.028 Y36.939
X24.054 Y36.791
X24.067 Y36.642
Y36.492
X24.054 Y36.343
X24.028 Y36.195
X23.99 Y36.05
X23.94 Y35.908
X23.877 Y35.772
X23.803 Y35.641
X23.719 Y35.518
X23.624 Y35.402
X23.519 Y35.294
X23.406 Y35.196
X23.284 Y35.109
X23.155 Y35.032
X23.019 Y34.968
X22.879 Y34.914
X22.735 Y34.873
X22.588 Y34.844
X22.439 Y34.827
X22.289 Y34.823
X22.139 Y34.831
X21.99 Y34.851
X21.844 Y34.883
X21.7 Y34.927
X21.562 Y34.984
X21.428 Y35.052
X21.3 Y35.131
X21.179 Y35.22
X21.066 Y35.318
X20.961 Y35.426
X20.866 Y35.541
X20.779 Y35.666
X20.702 Y35.797
X20.637 Y35.932
X20.583 Y36.072
X20.541 Y36.216
X20.511 Y36.363
X20.493 Y36.512
X20.488 Y36.662
X20.495 Y36.811
X20.514 Y36.96
X20.545 Y37.107
X20.588 Y37.252
X20.644 Y37.394
X20.71 Y37.53
X20.786 Y37.66
X20.873 Y37.782
X20.969 Y37.898
X21.074 Y38.004
X21.188 Y38.102
X21.31 Y38.19
X21.438 Y38.267
X21.572 Y38.334
X21.712 Y38.39
X21.856 Y38.434
X22.005 Y38.467
X22.156 Y38.488
X22.306 Y38.497
X22.456 Y38.493
X22.605 Y38.478
X22.753 Y38.45
X22.899 Y38.409
X23.041 Y38.357
X23.178 Y38.295
X23.308 Y38.221
X23.433 Y38.137
X23.552 Y38.042
X23.664 Y37.936
X23.768 Y37.822
X23.863 Y37.699
X23.947 Y37.568
X24.023 Y37.428
X24.087 Y37.281
X24.14 Y37.128
X24.181 Y36.973
X24.208 Y36.817
X24.222 Y36.665
X24.224 Y36.514
X24.214 Y36.364
X24.191 Y36.212
X24.156 Y36.062
X24.109 Y35.916
X24.052 Y35.776
X23.982 Y35.639
X23.902 Y35.508
X23.81 Y35.383
X23.71 Y35.267
X23.603 Y35.16
X23.488 Y35.064
X23.365 Y34.977
X23.234 Y34.899
X23.095 Y34.831
X22.951 Y34.774
X22.804 Y34.729
X22.657 Y34.697
X22.501 Y34.676
X22.341 Y34.667
X22.18 Y34.671
X22.02 Y34.688
X21.866 Y34.717
X21.718 Y34.757
X21.573 Y34.81
X21.429 Y34.876
X21.289 Y34.954
X21.155 Y35.043
X21.03 Y35.141
X20.914 Y35.249
X20.806 Y35.367
X20.706 Y35.496
X20.616 Y35.632
X20.538 Y35.775
X20.472 Y35.923
X20.42 Y36.071
X20.38 Y36.222
X20.352 Y36.377
X20.336 Y36.537
X20.333 Y36.697
X20.343 Y36.857
X20.365 Y37.014
X20.401 Y37.171
X20.449 Y37.326
X20.511 Y37.478
X20.584 Y37.624
X20.668 Y37.763
X20.761 Y37.893
X20.863 Y38.012
X20.974 Y38.124
X21.096 Y38.227
X21.226 Y38.321
X21.362 Y38.404
X21.504 Y38.475
X21.653 Y38.535
X21.808 Y38.583
X21.967 Y38.62
X22.129 Y38.643
X22.292 Y38.653
X22.454 Y38.65
X22.613 Y38.635
X22.771 Y38.606
X22.927 Y38.565
X23.08 Y38.511
X23.228 Y38.445
X23.369 Y38.368
X23.504 Y38.279
X23.634 Y38.179
X23.756 Y38.067
X23.87 Y37.945
X23.974 Y37.813
X24.067 Y37.673
X24.151 Y37.524
X24.222 Y37.367
X24.282 Y37.203
X24.328 Y37.036
X24.359 Y36.868
X24.377 Y36.703
X24.382 Y36.539
X24.373 Y36.376
X24.351 Y36.212
X24.315 Y36.049
X24.267 Y35.891
X24.207 Y35.737
X24.134 Y35.589
X24.049 Y35.445
X23.952 Y35.309
X23.846 Y35.182
X23.731 Y35.065
X23.608 Y34.959
X23.478 Y34.863
X23.338 Y34.777
X23.19 Y34.701
X23.034 Y34.637
X22.877 Y34.586
X22.717 Y34.548
X22.55 Y34.523
X22.378 Y34.511
X22.205 Y34.512
X22.032 Y34.528
X21.864 Y34.557
X21.703 Y34.598
X21.545 Y34.652
X21.389 Y34.72
X21.237 Y34.801
X21.092 Y34.895
X20.955 Y34.999
X20.827 Y35.114
X20.709 Y35.239
X20.599 Y35.376
X20.5 Y35.521
X20.413 Y35.674
X20.34 Y35.832
X20.28 Y35.992
X20.234 Y36.154
X20.201 Y36.321
X20.181 Y36.493
X20.175 Y36.666
X20.183 Y36.838
X20.205 Y37.008
X20.24 Y37.178
X20.29 Y37.345
X20.353 Y37.51
X20.429 Y37.668
X20.517 Y37.82
X20.616 Y37.962
X20.724 Y38.093
X20.842 Y38.215
X20.971 Y38.329
X21.11 Y38.432
X21.256 Y38.524
X21.408 Y38.603
X21.567 Y38.671
X21.733 Y38.726
X21.904 Y38.767
X22.077 Y38.795
X22.252 Y38.809
X22.427
X22.6 Y38.795
X22.771 Y38.767
X22.94 Y38.725
X23.105 Y38.67
X23.266 Y38.601
X23.419 Y38.521
X23.567 Y38.428
X23.707 Y38.322
X23.841 Y38.204
X23.965 Y38.075
X24.079 Y37.935
X24.182 Y37.786
X24.274 Y37.628
X24.354 Y37.461
X24.42 Y37.287
X24.472 Y37.108
X24.509 Y36.928
X24.531 Y36.75
X24.539 Y36.573
X24.532 Y36.397
X24.511 Y36.22
X24.476 Y36.045
X24.427 Y35.874
X24.365 Y35.707
X24.289 Y35.546
X24.2 Y35.39
X24.099 Y35.242
X23.987 Y35.103
X23.864 Y34.975
X23.734 Y34.858
X23.595 Y34.753
X23.446 Y34.658
X23.288 Y34.574
X23.123 Y34.502
X22.954 Y34.444
X22.782 Y34.401
X22.604 Y34.371
X22.42 Y34.355
X22.234 Y34.353
X22.049 Y34.367
X21.868 Y34.395
X21.693 Y34.437
X21.522 Y34.493
X21.354 Y34.563
X21.19 Y34.647
X21.032 Y34.745
X20.883 Y34.855
X20.745 Y34.976
X20.615 Y35.108
X20.496 Y35.252
X20.387 Y35.406
X20.292 Y35.568
X20.21 Y35.736
X20.143 Y35.907
X20.09 Y36.082
X20.052 Y36.26
X20.028 Y36.443
X20.018 Y36.629
X20.024 Y36.814
X20.044 Y36.997
X20.079 Y37.179
X20.129 Y37.36
X20.194 Y37.537
X20.272 Y37.708
X20.364 Y37.872
X20.468 Y38.026
X20.582 Y38.17
X20.707 Y38.303
X20.843 Y38.427
X20.99 Y38.54
X21.145 Y38.641
X21.307 Y38.729
X21.476 Y38.804
X21.653 Y38.866
X21.835 Y38.914
X22.021 Y38.947
X22.208 Y38.965
X22.396 Y38.967
X22.582 Y38.955
X22.765 Y38.928
X22.947 Y38.886
X23.126 Y38.83
X23.299 Y38.759
X23.465 Y38.676
X23.625 Y38.578
X23.777 Y38.468
X23.922 Y38.344
X24.057 Y38.208
X24.181 Y38.061
X24.294 Y37.904
X24.394 Y37.736
X24.482 Y37.56
X24.556 Y37.375
X24.615 Y37.185
X24.658 Y36.993
X24.685 Y36.802
X24.696 Y36.612
X24.692 Y36.423
X24.673 Y36.234
X24.638 Y36.046
X24.589 Y35.861
X24.525 Y35.682
X24.446 Y35.508
X24.354 Y35.34
X24.248 Y35.18
X24.13 Y35.029
X24.001 Y34.889
X23.863 Y34.762
X23.716 Y34.646
X23.559 Y34.541
X23.391 Y34.449
X23.216 Y34.37
X23.035 Y34.305
X22.852 Y34.255
X22.663 Y34.22
X22.468 Y34.2
X22.269 Y34.195
X22.071 Y34.207
X21.877 Y34.233
X21.688 Y34.275
X21.504 Y34.332
X21.323 Y34.404
X21.147 Y34.491
X20.977 Y34.592
X20.816 Y34.707
X20.666 Y34.834
X20.525 Y34.973
X20.396 Y35.124
X20.277 Y35.286
X20.172 Y35.458
X20.082 Y35.636
X20.007 Y35.818
X19.948 Y36.004
X19.904 Y36.194
X19.875 Y36.389
X19.862 Y36.587
X19.864 Y36.785
X19.883 Y36.981
X19.917 Y37.176
X19.967 Y37.369
X20.033 Y37.559
X20.114 Y37.743
X20.209 Y37.92
X20.317 Y38.087
X20.437 Y38.242
X20.569 Y38.387
X20.712 Y38.522
X20.866 Y38.645
X21.03 Y38.756
X21.202 Y38.853
X21.381 Y38.936
X21.568 Y39.004
X21.762 Y39.058
X21.959 Y39.097
X22.159 Y39.119
X22.359 Y39.125
X22.558 Y39.116
X22.755 Y39.09
X22.949 Y39.049
X23.141 Y38.991
X23.327 Y38.919
X23.506 Y38.832
X23.678 Y38.732
X23.842 Y38.616
X23.998 Y38.487
X24.145 Y38.345
X24.28 Y38.19
X24.402 Y38.025
X24.512 Y37.849
X24.608 Y37.663
X24.69 Y37.468
X24.756 Y37.267
X24.805 Y37.063
X24.837 Y36.859
X24.852 Y36.656
X24.851 Y36.454
X24.834 Y36.252
X24.8 Y36.051
X24.751 Y35.854
X24.686 Y35.661
X24.605 Y35.475
X24.51 Y35.294
X24.4 Y35.122
X24.277 Y34.959
X24.142 Y34.807
X23.996 Y34.669
X23.841 Y34.542
X23.675 Y34.428
X23.499 Y34.327
X23.313 Y34.24
X23.122 Y34.167
X22.927 Y34.111
X22.726 Y34.07
X22.52 Y34.046
X22.309 Y34.037
X22.099 Y34.046
X21.891 Y34.071
X21.688 Y34.113
X21.491 Y34.17
X21.298 Y34.243
X21.109 Y34.333
X20.927 Y34.438
X20.754 Y34.557
X20.591 Y34.689
X20.44 Y34.835
X20.299 Y34.993
X20.171 Y35.163
X20.056 Y35.343
X19.957 Y35.531
X19.874 Y35.725
X19.808 Y35.922
X19.757 Y36.124
X19.723 Y36.33
X19.706 Y36.54
X19.705 Y36.751
X19.721 Y36.96
X19.754 Y37.168
X19.804 Y37.374
X19.871 Y37.576
X19.954 Y37.773
X20.052 Y37.963
X20.164 Y38.142
X20.289 Y38.311
X20.427 Y38.467
X20.577 Y38.613
X20.739 Y38.747
X20.911 Y38.867
X21.092 Y38.973
X21.282 Y39.064
X21.479 Y39.141
X21.683 Y39.201
X21.892 Y39.246
X22.104 Y39.273
X22.317 Y39.283
X22.529 Y39.276
X22.739 Y39.252
X22.947 Y39.212
X23.151 Y39.154
X23.35 Y39.08
X23.542 Y38.991
X23.727 Y38.887
X23.903 Y38.767
X24.07 Y38.634
X24.226 Y38.487
X24.369 Y38.329
X24.5 Y38.16
X24.617 Y37.981
X24.72 Y37.793
X24.808 Y37.598
X24.88 Y37.397
X24.938 Y37.191
X24.979 Y36.982
X25.003 Y36.769
X25.011 Y36.556
X25.002 Y36.342
X24.975 Y36.13
X24.932 Y35.921
X24.872 Y35.715
X24.796 Y35.516
X24.705 Y35.322
X24.599 Y35.137
X24.478 Y34.961
X24.344 Y34.794
X24.197 Y34.639
X24.038 Y34.497
X23.868 Y34.367
X23.688 Y34.252
X23.5 Y34.151
X23.304 Y34.065
X23.102 Y33.995
X22.895 Y33.942
X22.684 Y33.905
X22.472 Y33.884
X22.258 Y33.879
X22.045 Y33.891
X21.833 Y33.92
X21.624 Y33.965
X21.419 Y34.026
X21.22 Y34.103
X21.027 Y34.196
X20.842 Y34.303
X20.666 Y34.425
X20.5 Y34.559
X20.345 Y34.706
X20.201 Y34.864
X20.07 Y35.033
X19.952 Y35.211
X19.848 Y35.398
X19.758 Y35.592
X19.683 Y35.792
X19.625 Y35.998
X19.582 Y36.207
X19.556 Y36.419
X19.546 Y36.633
X19.552 Y36.847
X19.575 Y37.059
X19.614 Y37.269
X19.67 Y37.476
X19.74 Y37.678
X19.826 Y37.874
X19.926 Y38.062
X20.04 Y38.243
X20.169 Y38.414
X20.31 Y38.574
X20.463 Y38.723
X20.627 Y38.86
X20.802 Y38.984
X20.985 Y39.094
X21.176 Y39.19
X21.374 Y39.27
X21.577 Y39.336
X21.785 Y39.386
X21.996 Y39.419
X22.209 Y39.437
X22.423 Y39.439
X22.636 Y39.424
X22.848 Y39.393
X23.056 Y39.346
X23.261 Y39.284
X23.46 Y39.206
X23.652 Y39.113
X23.837 Y39.005
X24.013 Y38.884
X24.179 Y38.749
X24.334 Y38.603
X24.478 Y38.445
X24.61 Y38.276
X24.729 Y38.099
X24.835 Y37.913
X24.927 Y37.72
X25.005 Y37.521
X25.068 Y37.317
X25.116 Y37.109
X25.149 Y36.897
X25.166 Y36.684
X25.167 Y36.47
X25.152 Y36.257
X25.121 Y36.046
X25.074 Y35.837
X25.012 Y35.633
X24.934 Y35.433
X24.842 Y35.241
X24.735 Y35.056
X24.614 Y34.879
X24.481 Y34.712
X24.336 Y34.555
X24.179 Y34.41
X24.012 Y34.277
X23.835 Y34.157
X23.649 Y34.051
X23.456 Y33.958
X23.257 Y33.881
X23.053 Y33.818
X22.844 Y33.771
X22.633 Y33.739
X22.42 Y33.723
X22.206 Y33.722
X21.993 Y33.737
X21.781 Y33.767
X21.573 Y33.814
X21.368 Y33.876
X21.169 Y33.953
X20.976 Y34.045
X20.79 Y34.15
X20.612 Y34.269
X20.443 Y34.401
X20.285 Y34.544
X20.137 Y34.698
X20.001 Y34.863
X19.876 Y35.037
X19.765 Y35.219
X19.667 Y35.409
X19.583 Y35.606
X19.513 Y35.808
X19.458 Y36.014
X19.419 Y36.225
X19.395 Y36.437
X19.387 Y36.651
X19.395 Y36.864
X19.418 Y37.077
X19.456 Y37.287
X19.51 Y37.494
X19.578 Y37.696
X19.661 Y37.894
X19.757 Y38.084
X19.868 Y38.267
X19.991 Y38.442
X20.127 Y38.607
X20.274 Y38.762
X20.433 Y38.905
X20.601 Y39.037
X20.778 Y39.156
X20.964 Y39.262
X21.157 Y39.355
X21.356 Y39.433
X21.56 Y39.496
X21.768 Y39.544
X21.979 Y39.577
X22.192 Y39.595
X22.406 Y39.597
X22.62 Y39.585
X22.831 Y39.556
X23.041 Y39.513
X23.246 Y39.454
X23.447 Y39.381
X23.642 Y39.294
X23.831 Y39.193
X24.011 Y39.079
X24.183 Y38.952
X24.345 Y38.812
X24.497 Y38.661
X24.637 Y38.5
X24.767 Y38.33
X24.883 Y38.151
X24.988 Y37.964
X25.078 Y37.771
X25.155 Y37.571
X25.218 Y37.367
X25.267 Y37.159
X25.302 Y36.948
X25.321 Y36.735
X25.325 Y36.522
X25.315 Y36.308
X25.289 Y36.096
X25.248 Y35.886
X25.192 Y35.68
X25.122 Y35.478
X25.038 Y35.281
X24.94 Y35.092
X24.828 Y34.909
X24.704 Y34.735
X24.568 Y34.57
X24.42 Y34.416
X24.262 Y34.272
X24.094 Y34.14
X23.916 Y34.021
X23.731 Y33.915
X23.538 Y33.822
X23.34 Y33.743
X23.136 Y33.678
X22.928 Y33.627
X22.718 Y33.591
X22.505 Y33.57
X22.291 Y33.564
X22.078 Y33.572
X21.865 Y33.595
X21.655 Y33.632
X21.448 Y33.685
X21.245 Y33.753
X21.047 Y33.834
X20.856 Y33.929
X20.671 Y34.037
X20.495 Y34.158
X20.327 Y34.29
X20.169 Y34.435
X20.022 Y34.589
X19.885 Y34.754
X19.76 Y34.927
X19.647 Y35.108
X19.546 Y35.297
X19.459 Y35.492
X19.385 Y35.693
X19.325 Y35.898
X19.279 Y36.107
X19.248 Y36.318
X19.232 Y36.531
X19.231 Y36.745
X19.245 Y36.958
X19.273 Y37.17
X19.316 Y37.38
X19.373 Y37.586
X19.443 Y37.787
X19.528 Y37.984
X19.625 Y38.174
X19.736 Y38.357
X19.86 Y38.531
X19.995 Y38.697
X20.141 Y38.852
X20.298 Y38.998
X20.465 Y39.132
X20.64 Y39.255
X20.823 Y39.365
X21.013 Y39.462
X21.21 Y39.546
X21.412 Y39.617
X21.618 Y39.673
X21.827 Y39.715
X22.039 Y39.742
X22.253 Y39.755
X22.466 Y39.754
X22.68 Y39.738
X22.891 Y39.707
X23.1 Y39.662
X23.305 Y39.602
X23.506 Y39.529
X23.701 Y39.442
X23.89 Y39.341
X24.072 Y39.229
X24.245 Y39.103
X24.409 Y38.966
X24.564 Y38.819
X24.708 Y38.661
X24.842 Y38.494
X24.964 Y38.319
X25.074 Y38.136
X25.172 Y37.946
X25.257 Y37.75
X25.329 Y37.548
X25.388 Y37.343
X25.433 Y37.134
X25.464 Y36.923
X25.481 Y36.709
X25.484 Y36.496
X25.472 Y36.282
X25.445 Y36.07
X25.404 Y35.86
X25.35 Y35.654
X25.281 Y35.451
X25.199 Y35.254
X25.104 Y35.063
X24.995 Y34.878
X24.875 Y34.702
X24.743 Y34.533
X24.601 Y34.374
X24.447 Y34.225
X24.284 Y34.087
X24.112 Y33.96
X23.931 Y33.846
X23.744 Y33.744
X23.55 Y33.654
X23.35 Y33.578
X23.145 Y33.515
X22.937 Y33.467
X22.726 Y33.432
X22.514 Y33.412
X22.3 Y33.405
X22.086 Y33.413
X21.874 Y33.434
X21.663 Y33.47
X21.455 Y33.519
X21.251 Y33.583
X21.052 Y33.66
X20.858 Y33.751
X20.671 Y33.854
X20.49 Y33.968
X20.318 Y34.095
X20.154 Y34.232
X20. Y34.381
X19.856 Y34.539
X19.723 Y34.706
X19.6 Y34.881
X19.49 Y35.064
X19.391 Y35.253
X19.304 Y35.449
X19.232 Y35.65
X19.172 Y35.855
X19.126 Y36.064
X19.094 Y36.275
X19.076 Y36.488
X19.072 Y36.702
X19.083 Y36.915
X19.107 Y37.128
X19.145 Y37.338
X19.197 Y37.546
X19.261 Y37.749
X19.339 Y37.948
X19.43 Y38.142
X19.533 Y38.329
X19.649 Y38.509
X19.776 Y38.681
X19.914 Y38.844
X20.063 Y38.997
X20.221 Y39.141
X20.389 Y39.274
X20.565 Y39.395
X20.748 Y39.505
X20.939 Y39.602
X21.135 Y39.687
X21.336 Y39.758
X21.542 Y39.817
X21.751 Y39.861
X21.962 Y39.892
X22.175 Y39.91
X22.389 Y39.913
X22.603 Y39.903
X22.815 Y39.879
X23.026 Y39.841
X23.233 Y39.789
X23.436 Y39.724
X23.635 Y39.646
X23.829 Y39.555
X24.016 Y39.451
X24.196 Y39.336
X24.368 Y39.209
X24.531 Y39.071
X24.685 Y38.922
X24.829 Y38.764
X24.962 Y38.597
X25.085 Y38.422
X25.197 Y38.24
X25.297 Y38.051
X25.384 Y37.856
X25.459 Y37.656
X25.522 Y37.452
X25.572 Y37.244
X25.609 Y37.033
X25.632 Y36.821
X25.642 Y36.607
X25.638 Y36.393
X25.62 Y36.18
X25.588 Y35.969
X25.543 Y35.76
X25.485 Y35.554
X25.413 Y35.353
X25.329 Y35.157
X25.232 Y34.966
X25.123 Y34.782
X25.002 Y34.606
X24.87 Y34.438
X24.727 Y34.278
X24.575 Y34.128
X24.414 Y33.988
X24.243 Y33.86
X24.064 Y33.742
X23.879 Y33.636
X23.687 Y33.543
X23.489 Y33.461
X23.287 Y33.392
X23.08 Y33.337
X22.871 Y33.294
X22.659 Y33.266
X22.446 Y33.25
X22.232 Y33.248
X22.018 Y33.259
X21.806 Y33.284
X21.596 Y33.321
X21.388 Y33.373
X21.185 Y33.438
X20.986 Y33.516
X20.792 Y33.607
X20.604 Y33.709
X20.423 Y33.823
X20.25 Y33.948
X20.085 Y34.084
X19.929 Y34.229
X19.782 Y34.385
X19.645 Y34.549
X19.518 Y34.721
X19.402 Y34.901
X19.298 Y35.087
X19.205 Y35.28
X19.125 Y35.478
X19.057 Y35.681
X19.002 Y35.887
X18.96 Y36.097
X18.931 Y36.309
X18.916 Y36.522
X18.914 Y36.736
X18.926 Y36.949
X18.951 Y37.161
X18.99 Y37.371
X19.042 Y37.579
X19.106 Y37.783
X19.182 Y37.982
X19.271 Y38.177
X19.372 Y38.365
X19.485 Y38.547
X19.608 Y38.721
X19.743 Y38.887
X19.888 Y39.045
X20.042 Y39.193
X20.205 Y39.331
X20.376 Y39.459
X20.555 Y39.575
X20.742 Y39.68
X20.934 Y39.774
X21.132 Y39.855
X21.334 Y39.924
X21.54 Y39.98
X21.75 Y40.023
X21.961 Y40.052
X22.175 Y40.068
X22.388 Y40.072
X22.602 Y40.062
X22.814 Y40.039
X23.025 Y40.002
X23.233 Y39.953
X23.437 Y39.89
X23.638 Y39.815
X23.833 Y39.728
X24.022 Y39.629
X24.205 Y39.519
X24.381 Y39.397
X24.549 Y39.264
X24.708 Y39.122
X24.857 Y38.969
X24.998 Y38.808
X25.128 Y38.639
X25.248 Y38.462
X25.357 Y38.278
X25.455 Y38.088
X25.541 Y37.892
X25.615 Y37.692
X25.677 Y37.487
X25.726 Y37.279
X25.763 Y37.068
X25.788 Y36.856
X25.799 Y36.643
X25.797 Y36.429
X25.782 Y36.216
X25.754 Y36.004
X25.713 Y35.794
X25.659 Y35.587
X25.593 Y35.384
X25.514 Y35.185
X25.423 Y34.991
X25.321 Y34.804
X25.207 Y34.623
X25.082 Y34.45
X24.946 Y34.284
X24.801 Y34.127
X24.647 Y33.979
X24.484 Y33.841
X24.312 Y33.714
X24.133 Y33.598
X23.947 Y33.493
X23.754 Y33.399
X23.557 Y33.318
X23.355 Y33.248
X23.149 Y33.191
X22.94 Y33.146
X22.728 Y33.115
X22.515 Y33.096
X22.302 Y33.09
X22.088 Y33.097
X21.875 Y33.116
X21.664 Y33.148
X21.455 Y33.192
X21.249 Y33.25
X21.047 Y33.321
X20.85 Y33.404
X20.658 Y33.498
X20.472 Y33.604
X20.293 Y33.72
X20.121 Y33.847
X19.957 Y33.984
X19.802 Y34.131
X19.656 Y34.287
X19.519 Y34.452
X19.393 Y34.624
X19.277 Y34.803
X19.171 Y34.989
X19.076 Y35.181
X18.994 Y35.378
X18.923 Y35.58
X18.865 Y35.785
X18.819 Y35.994
X18.785 Y36.205
X18.764 Y36.418
X18.756 Y36.632
X18.761 Y36.845
X18.779 Y37.058
X18.809 Y37.27
X18.853 Y37.479
X18.908 Y37.686
X18.975 Y37.889
X19.055 Y38.087
X19.145 Y38.281
X19.248 Y38.468
X19.362 Y38.649
X19.486 Y38.823
X19.621 Y38.989
X19.766 Y39.146
X19.919 Y39.295
X20.081 Y39.434
X20.251 Y39.564
X20.429 Y39.682
X20.614 Y39.79
X20.804 Y39.887
X21. Y39.973
X21.201 Y40.046
X21.406 Y40.108
X21.614 Y40.157
X21.824 Y40.194
X22.037 Y40.218
X22.25 Y40.229
X22.464 Y40.228
X22.677 Y40.214
X22.889 Y40.187
X23.099 Y40.149
X23.307 Y40.097
X23.511 Y40.033
X23.711 Y39.957
X23.905 Y39.869
X24.095 Y39.77
X24.278 Y39.66
X24.454 Y39.539
X24.623 Y39.408
X24.784 Y39.267
X24.935 Y39.116
X25.078 Y38.957
X25.212 Y38.79
X25.335 Y38.616
X25.449 Y38.435
X25.552 Y38.247
X25.644 Y38.054
X25.724 Y37.856
X25.793 Y37.654
X25.85 Y37.448
X25.895 Y37.239
X25.928 Y37.028
X25.949 Y36.815
X25.958 Y36.601
X25.954 Y36.388
X25.938 Y36.175
X25.908 Y35.963
X25.866 Y35.753
X25.812 Y35.546
X25.746 Y35.343
X25.669 Y35.144
X25.579 Y34.95
X25.478 Y34.761
X25.367 Y34.579
X25.244 Y34.404
X25.112 Y34.236
X24.97 Y34.076
X24.819 Y33.924
X24.66 Y33.782
X24.492 Y33.65
X24.317 Y33.527
X24.134 Y33.416
X23.946 Y33.315
X23.752 Y33.226
X23.553 Y33.148
X23.35 Y33.081
X23.143 Y33.027
X22.933 Y32.984
X22.722 Y32.954
X22.509 Y32.937
X22.295 Y32.931
X22.081 Y32.938
X21.869 Y32.957
X21.657 Y32.988
X21.448 Y33.032
X21.241 Y33.088
X21.039 Y33.156
X20.84 Y33.235
X20.647 Y33.326
X20.459 Y33.428
X20.277 Y33.541
X20.102 Y33.663
X19.934 Y33.796
X19.775 Y33.938
X19.623 Y34.089
X19.481 Y34.249
X19.348 Y34.416
X19.225 Y34.59
X19.111 Y34.772
X19.008 Y34.959
X18.916 Y35.152
X18.835 Y35.349
X18.765 Y35.551
X18.708 Y35.757
X18.662 Y35.966
X18.629 Y36.177
X18.607 Y36.39
X18.598 Y36.604
X18.601 Y36.817
X18.617 Y37.031
X18.645 Y37.242
X18.685 Y37.452
X18.737 Y37.66
X18.8 Y37.864
X18.874 Y38.064
X18.96 Y38.26
X19.057 Y38.451
X19.165 Y38.635
X19.283 Y38.813
X19.412 Y38.984
X19.55 Y39.147
X19.697 Y39.302
X19.853 Y39.448
X20.017 Y39.586
X20.188 Y39.713
X20.367 Y39.831
X20.552 Y39.938
X20.743 Y40.034
X20.939 Y40.119
X21.14 Y40.193
X21.344 Y40.255
X21.552 Y40.306
X21.762 Y40.344
X21.974 Y40.37
X22.188 Y40.385
X22.401 Y40.387
X22.615 Y40.377
X22.828 Y40.355
X23.039 Y40.321
X23.247 Y40.276
X23.453 Y40.218
X23.655 Y40.149
X23.853 Y40.067
X24.046 Y39.975
X24.234 Y39.873
X24.415 Y39.759
X24.589 Y39.636
X24.757 Y39.503
X24.916 Y39.36
X25.067 Y39.209
X25.209 Y39.049
X25.342 Y38.882
X25.465 Y38.707
X25.579 Y38.526
X25.682 Y38.339
X25.775 Y38.147
X25.857 Y37.949
X25.929 Y37.748
X25.988 Y37.542
X26.037 Y37.334
X26.074 Y37.124
X26.1 Y36.911
X26.113 Y36.698
X26.115 Y36.484
X26.105 Y36.271
X26.082 Y36.058
X26.047 Y35.847
X26.001 Y35.639
X25.943 Y35.433
X25.874 Y35.231
X25.793 Y35.033
X25.701 Y34.84
X25.599 Y34.652
X25.485 Y34.471
X25.362 Y34.296
X25.229 Y34.129
X25.087 Y33.969
X24.937 Y33.817
X24.778 Y33.675
X24.611 Y33.541
X24.436 Y33.417
X24.255 Y33.304
X24.068 Y33.201
X23.875 Y33.108
X23.678 Y33.026
X23.476 Y32.955
X23.271 Y32.896
X23.063 Y32.848
X22.852 Y32.812
X22.64 Y32.788
X22.426 Y32.775
X22.212
X21.999 Y32.786
X21.786 Y32.808
X21.575 Y32.842
X21.367 Y32.888
X21.161 Y32.946
X20.959 Y33.016
X20.761 Y33.097
X20.568 Y33.189
X20.38 Y33.291
X20.198 Y33.403
X20.023 Y33.526
X19.854 Y33.657
X19.693 Y33.798
X19.541 Y33.947
X19.396 Y34.105
X19.261 Y34.27
X19.135 Y34.443
X19.018 Y34.622
X18.911 Y34.807
X18.814 Y34.997
X18.727 Y35.193
X18.652 Y35.393
X18.587 Y35.597
X18.535 Y35.804
X18.494 Y36.014
X18.464 Y36.225
X18.446 Y36.438
X18.439 Y36.652
X18.445 Y36.866
X18.462 Y37.079
X18.492 Y37.29
X18.533 Y37.5
X18.585 Y37.707
X18.649 Y37.911
X18.723 Y38.112
X18.808 Y38.308
X18.904 Y38.499
X19.01 Y38.685
X19.126 Y38.864
X19.253 Y39.036
X19.388 Y39.202
X19.533 Y39.359
X19.685 Y39.509
X19.846 Y39.65
X20.014 Y39.782
X20.189 Y39.904
X20.371 Y40.017
X20.559 Y40.119
X20.752 Y40.211
X20.949 Y40.292
X21.151 Y40.363
X21.357 Y40.422
X21.565 Y40.47
X21.776 Y40.506
X21.988 Y40.531
X22.201 Y40.544
X22.415 Y40.545
X22.629 Y40.535
X22.841 Y40.513
X23.052 Y40.48
X23.261 Y40.435
X23.468 Y40.379
X23.67 Y40.311
X23.869 Y40.233
X24.063 Y40.143
X24.252 Y40.043
X24.436 Y39.934
X24.613 Y39.814
X24.783 Y39.685
X24.946 Y39.546
X25.101 Y39.399
X25.248 Y39.244
X25.386 Y39.081
X25.516 Y38.911
X25.636 Y38.734
X25.747 Y38.551
X25.848 Y38.363
X25.938 Y38.169
X26.019 Y37.971
X26.088 Y37.769
X26.147 Y37.564
X26.195 Y37.355
X26.231 Y37.145
X26.257 Y36.932
X26.271 Y36.719
X26.274 Y36.505
X26.265 Y36.292
X26.244 Y36.079
X26.212 Y35.868
X26.168 Y35.658
X26.113 Y35.452
X26.047 Y35.248
X25.971 Y35.049
X25.884 Y34.854
X25.786 Y34.664
X25.678 Y34.479
X25.56 Y34.301
X25.433 Y34.129
X25.296 Y33.965
X25.151 Y33.808
X24.998 Y33.659
X24.837 Y33.518
X24.668 Y33.386
X24.493 Y33.264
X24.311 Y33.152
X24.123 Y33.05
X23.93 Y32.958
X23.732 Y32.877
X23.531 Y32.807
X23.325 Y32.747
X23.117 Y32.698
X22.907 Y32.66
X22.695 Y32.634
X22.481 Y32.62
X22.268 Y32.616
X22.054 Y32.624
X21.841 Y32.643
X21.63 Y32.673
X21.42 Y32.714
X21.213 Y32.767
X21.009 Y32.83
X20.808 Y32.905
X20.613 Y32.991
X20.422 Y33.087
X20.236 Y33.193
X20.056 Y33.308
X19.882 Y33.433
X19.716 Y33.567
X19.556 Y33.709
X19.405 Y33.86
X19.261 Y34.018
X19.127 Y34.185
X19.001 Y34.357
X18.884 Y34.536
X18.777 Y34.721
X18.679 Y34.911
X18.592 Y35.107
X18.515 Y35.306
X18.449 Y35.509
X18.393 Y35.716
X18.349 Y35.925
X18.316 Y36.136
X18.294 Y36.349
X18.283 Y36.562
X18.284 Y36.776
X18.296 Y36.989
X18.319 Y37.202
X18.354 Y37.413
X18.399 Y37.622
X18.456 Y37.828
X18.523 Y38.031
X18.601 Y38.23
X18.688 Y38.425
X18.786 Y38.615
X18.894 Y38.799
X19.012 Y38.978
X19.139 Y39.149
X19.276 Y39.314
X19.42 Y39.471
X19.573 Y39.621
X19.734 Y39.762
X19.901 Y39.895
X20.075 Y40.018
X20.256 Y40.133
X20.443 Y40.237
X20.635 Y40.331
X20.831 Y40.415
X21.032 Y40.489
X21.236 Y40.552
X21.443 Y40.605
X21.653 Y40.647
X21.864 Y40.677
X22.077 Y40.696
X22.291 Y40.704
X22.505 Y40.7
X22.718 Y40.686
X22.93 Y40.66
X23.141 Y40.624
X23.349 Y40.576
X23.555 Y40.518
X23.757 Y40.448
X23.955 Y40.368
X24.149 Y40.278
X24.338 Y40.178
X24.521 Y40.067
X24.698 Y39.948
X24.869 Y39.819
X25.032 Y39.682
X25.188 Y39.536
X25.337 Y39.382
X25.477 Y39.22
X25.608 Y39.052
X25.731 Y38.877
X25.845 Y38.696
X25.95 Y38.509
X26.044 Y38.318
X26.129 Y38.122
X26.204 Y37.921
X26.269 Y37.718
X26.322 Y37.511
X26.366 Y37.301
X26.398 Y37.09
X26.42 Y36.877
X26.431 Y36.664
Y36.45
X26.419 Y36.237
X26.397 Y36.024
X26.363 Y35.813
X26.318 Y35.604
X26.263 Y35.398
X26.197 Y35.194
X26.12 Y34.995
X26.033 Y34.799
X25.936 Y34.609
X25.83 Y34.424
X25.713 Y34.244
X25.588 Y34.071
X25.453 Y33.905
X25.311 Y33.746
X25.16 Y33.594
X25.002 Y33.451
X24.836 Y33.316
X24.664 Y33.189
X24.485 Y33.072
X24.3 Y32.965
X24.11 Y32.868
X23.915 Y32.78
X23.715 Y32.703
X23.512 Y32.635
X23.306 Y32.579
X23.098 Y32.532
X22.887 Y32.497
X22.674 Y32.473
X22.461 Y32.46
X22.247 Y32.457
X22.034 Y32.466
X21.821 Y32.485
X21.609 Y32.515
X21.399 Y32.556
X21.192 Y32.608
X20.988 Y32.671
X20.787 Y32.744
X20.59 Y32.828
X20.398 Y32.921
X20.211 Y33.025
X20.029 Y33.137
X19.853 Y33.259
X19.684 Y33.389
X19.521 Y33.528
X19.366 Y33.674
X19.218 Y33.829
X19.079 Y33.991
X18.948 Y34.16
X18.825 Y34.335
X18.712 Y34.516
X18.607 Y34.703
X18.512 Y34.894
X18.427 Y35.09
X18.352 Y35.291
X18.288 Y35.494
X18.234 Y35.701
X18.19 Y35.911
X18.158 Y36.122
X18.136 Y36.335
X18.125 Y36.548
Y36.762
X18.136 Y36.975
X18.158 Y37.188
X18.19 Y37.399
X18.234 Y37.608
X18.288 Y37.815
X18.352 Y38.019
X18.426 Y38.22
X18.51 Y38.416
X18.604 Y38.608
X18.708 Y38.795
X18.821 Y38.977
X18.943 Y39.152
X19.075 Y39.32
X19.214 Y39.482
X19.362 Y39.637
X19.517 Y39.784
X19.68 Y39.923
X19.849 Y40.053
X20.025 Y40.175
X20.206 Y40.287
X20.394 Y40.39
X20.586 Y40.484
X20.783 Y40.567
X20.984 Y40.64
X21.188 Y40.704
X21.395 Y40.756
X21.605 Y40.799
X21.816 Y40.83
X22.029 Y40.851
X22.242 Y40.861
X22.456 Y40.86
X22.669 Y40.848
X22.882 Y40.826
X23.093 Y40.793
X23.303 Y40.75
X23.509 Y40.696
X23.713 Y40.632
X23.914 Y40.557
X24.11 Y40.472
X24.301 Y40.377
X24.488 Y40.273
X24.669 Y40.159
X24.844 Y40.037
X25.013 Y39.906
X25.175 Y39.766
X25.33 Y39.619
X25.477 Y39.463
X25.616 Y39.301
X25.747 Y39.132
X25.869 Y38.957
X25.982 Y38.775
X26.087 Y38.589
X26.182 Y38.398
X26.267 Y38.202
X26.343 Y38.002
X26.409 Y37.799
X26.465 Y37.592
X26.511 Y37.383
X26.546 Y37.173
X26.571 Y36.96
X26.586 Y36.747
X26.59 Y36.533
X26.583 Y36.32
X26.565 Y36.107
X26.537 Y35.895
X26.498 Y35.685
X26.449 Y35.477
X26.389 Y35.271
X26.319 Y35.069
X26.239 Y34.871
X26.15 Y34.677
X26.05 Y34.488
X25.942 Y34.304
X25.824 Y34.125
X25.697 Y33.953
X25.562 Y33.788
X25.418 Y33.629
X25.267 Y33.478
X25.109 Y33.334
X24.944 Y33.199
X24.772 Y33.072
X24.593 Y32.954
X24.409 Y32.845
X24.22 Y32.746
X24.026 Y32.656
X23.828 Y32.576
X23.626 Y32.506
X23.421 Y32.445
X23.213 Y32.395
X23.003 Y32.356
X22.791 Y32.326
X22.578 Y32.308
X22.365 Y32.3
X22.151 Y32.302
X21.938 Y32.315
X21.725 Y32.338
X21.514 Y32.372
X21.305 Y32.416
X21.098 Y32.47
X20.894 Y32.535
X20.694 Y32.61
X20.498 Y32.695
X20.306 Y32.79
X20.12 Y32.894
X19.938 Y33.007
X19.763 Y33.128
X19.593 Y33.259
X19.43 Y33.397
X19.274 Y33.543
X19.125 Y33.697
X18.984 Y33.857
X18.852 Y34.025
X18.727 Y34.199
X18.611 Y34.378
X18.504 Y34.563
X18.405 Y34.753
X18.316 Y34.947
X18.237 Y35.146
X18.167 Y35.348
X18.108 Y35.553
X18.059 Y35.761
X18.02 Y35.971
X17.992 Y36.183
X17.974 Y36.396
X17.966 Y36.61
X17.969 Y36.824
X17.982 Y37.037
X18.006 Y37.249
X18.04 Y37.46
X18.085 Y37.669
X18.14 Y37.876
X18.205 Y38.08
X18.279 Y38.28
X18.364 Y38.476
X18.457 Y38.669
X18.56 Y38.856
X18.672 Y39.038
X18.793 Y39.214
X18.923 Y39.384
X19.061 Y39.547
X19.206 Y39.704
X19.359 Y39.853
X19.52 Y39.995
X19.686 Y40.128
X19.86 Y40.254
X20.039 Y40.37
X20.223 Y40.478
X20.413 Y40.577
X20.607 Y40.665
X20.806 Y40.745
X21.008 Y40.814
X21.213 Y40.874
X21.421 Y40.924
X21.631 Y40.964
X21.843 Y40.993
X22.056 Y41.012
X22.269 Y41.02
X22.483 Y41.018
X22.697 Y41.005
X22.909 Y40.983
X23.12 Y40.949
X23.33 Y40.906
X23.537 Y40.853
X23.741 Y40.789
X23.941 Y40.716
X24.138 Y40.632
X24.331 Y40.54
X24.519 Y40.437
X24.701 Y40.326
X24.878 Y40.207
X25.049 Y40.079
X25.214 Y39.942
X25.372 Y39.798
X25.522 Y39.646
X25.665 Y39.487
X25.801 Y39.322
X25.928 Y39.15
X26.047 Y38.972
X26.157 Y38.789
X26.258 Y38.601
X26.351 Y38.408
X26.434 Y38.211
X26.508 Y38.011
X26.572 Y37.807
X26.626 Y37.6
X26.671 Y37.391
X26.705 Y37.18
X26.73 Y36.968
X26.744 Y36.755
X26.748 Y36.541
X26.742 Y36.327
X26.725 Y36.114
X26.698 Y35.902
X26.661 Y35.692
X26.613 Y35.483
X26.556 Y35.277
X26.489 Y35.074
X26.412 Y34.875
X26.326 Y34.679
X26.23 Y34.488
X26.125 Y34.302
X26.011 Y34.121
X25.889 Y33.946
X25.758 Y33.777
X25.619 Y33.614
X25.473 Y33.458
X25.319 Y33.31
X25.158 Y33.169
X24.991 Y33.036
X24.817 Y32.911
X24.638 Y32.795
X24.453 Y32.688
X24.263 Y32.59
X24.068 Y32.501
X23.87 Y32.422
X23.668 Y32.352
X23.463 Y32.292
X23.255 Y32.242
X23.045 Y32.202
X22.833 Y32.172
X22.62 Y32.152
X22.407 Y32.142
X22.193 Y32.143
X21.98 Y32.153
X21.767 Y32.174
X21.555 Y32.204
X21.345 Y32.245
X21.138 Y32.296
X20.933 Y32.356
X20.731 Y32.427
X20.533 Y32.507
X20.339 Y32.597
X20.149 Y32.695
X19.965 Y32.803
X19.785 Y32.919
X19.611 Y33.044
X19.444 Y33.176
X19.282 Y33.317
X19.128 Y33.465
X18.981 Y33.62
X18.841 Y33.781
X18.709 Y33.95
X18.586 Y34.124
X18.47 Y34.304
X18.363 Y34.489
X18.265 Y34.679
X18.176 Y34.873
X18.096 Y35.071
X18.025 Y35.273
X17.964 Y35.478
X17.914 Y35.686
X17.873 Y35.896
X17.842 Y36.107
X17.821 Y36.32
X17.81 Y36.533
X17.809 Y36.747
X17.818 Y36.961
X17.838 Y37.173
X17.867 Y37.385
X17.907 Y37.595
X17.956 Y37.803
X18.015 Y38.009
X18.084 Y38.211
X18.162 Y38.41
X18.249 Y38.605
X18.345 Y38.796
X18.451 Y38.982
X18.565 Y39.163
X18.687 Y39.338
X18.818 Y39.507
X18.957 Y39.67
X19.103 Y39.825
X19.257 Y39.974
X19.417 Y40.116
X19.584 Y40.249
X19.757 Y40.375
X19.935 Y40.492
X20.119 Y40.601
X20.308 Y40.701
X20.502 Y40.792
X20.7 Y40.873
X20.901 Y40.945
X21.105 Y41.008
X21.312 Y41.061
X21.521 Y41.105
X21.733 Y41.138
X21.945 Y41.161
X22.158 Y41.175
X22.372 Y41.178
X22.586 Y41.171
X22.799 Y41.154
X23.011 Y41.128
X23.222 Y41.091
X23.43 Y41.045
X23.636 Y40.988
X23.84 Y40.922
X24.04 Y40.847
X24.236 Y40.762
X24.428 Y40.668
X24.615 Y40.565
X24.797 Y40.453
X24.974 Y40.333
X25.145 Y40.205
X25.31 Y40.069
X25.468 Y39.925
X25.619 Y39.774
X25.763 Y39.616
X25.9 Y39.451
X26.029 Y39.281
X26.149 Y39.104
X26.262 Y38.923
X26.366 Y38.736
X26.462 Y38.545
X26.548 Y38.349
X26.626 Y38.15
X26.694 Y37.948
X26.753 Y37.742
X26.803 Y37.534
X26.843 Y37.324
X26.873 Y37.113
X26.894 Y36.9
X26.904 Y36.686
X26.905 Y36.473
X26.896 Y36.259
X26.877 Y36.046
X26.848 Y35.834
X26.809 Y35.624
X26.76 Y35.416
X26.702 Y35.21
X26.634 Y35.008
X26.556 Y34.809
X26.47 Y34.613
X26.374 Y34.422
X26.27 Y34.235
X26.157 Y34.054
X26.035 Y33.878
X25.906 Y33.708
X25.768 Y33.544
X25.624 Y33.387
X25.472 Y33.237
X25.313 Y33.093
X25.148 Y32.958
X24.976 Y32.83
X24.799 Y32.71
X24.617 Y32.599
X24.429 Y32.497
X24.237 Y32.403
X24.04 Y32.319
X23.84 Y32.244
X23.637 Y32.178
X23.431 Y32.121
X23.222 Y32.074
X23.012 Y32.037
X22.8 Y32.009
X22.587 Y31.991
X22.373 Y31.983
X22.159 Y31.985
X21.946 Y31.997
X21.733 Y32.018
X21.522 Y32.049
X21.312 Y32.09
X21.104 Y32.141
X20.899 Y32.201
X20.697 Y32.271
X20.499 Y32.35
X20.304 Y32.438
X20.114 Y32.535
X19.928 Y32.641
X19.747 Y32.755
X19.572 Y32.877
X19.402 Y33.007
X19.238 Y33.145
X19.081 Y33.289
X18.931 Y33.441
X18.788 Y33.6
X18.652 Y33.765
X18.524 Y33.937
X18.404 Y34.113
X18.292 Y34.295
X18.188 Y34.482
X18.092 Y34.673
X18.006 Y34.869
X17.928 Y35.068
X17.86 Y35.271
X17.801 Y35.476
X17.752 Y35.684
X17.712 Y35.894
X17.682 Y36.106
X17.662 Y36.319
X17.651 Y36.532
X17.65 Y36.746
X17.659 Y36.959
X17.678 Y37.172
X17.707 Y37.384
X17.745 Y37.594
X17.793 Y37.803
X17.85 Y38.009
X17.917 Y38.212
X17.992 Y38.412
X18.077 Y38.608
X18.17 Y38.801
X18.272 Y38.988
X18.382 Y39.171
X18.501 Y39.349
X18.628 Y39.521
X18.763 Y39.687
X18.905 Y39.847
X19.054 Y40.
X19.211 Y40.146
X19.373 Y40.284
X19.542 Y40.416
X19.716 Y40.539
X19.896 Y40.654
X20.081 Y40.761
X20.271 Y40.86
X20.465 Y40.949
X20.663 Y41.03
X20.865 Y41.101
X21.069 Y41.163
X21.277 Y41.216
X21.486 Y41.259
X21.697 Y41.293
X21.909 Y41.317
X22.123 Y41.331
X22.336 Y41.336
X22.55 Y41.331
X22.763 Y41.316
X22.976 Y41.292
X23.187 Y41.258
X23.396 Y41.215
X23.603 Y41.162
X23.808 Y41.1
X24.009 Y41.028
X24.207 Y40.948
X24.401 Y40.858
X24.591 Y40.76
X24.776 Y40.653
X24.956 Y40.538
X25.131 Y40.415
X25.3 Y40.284
X25.463 Y40.145
X25.619 Y39.999
X25.768 Y39.846
X25.911 Y39.687
X26.046 Y39.522
X26.174 Y39.35
X26.294 Y39.173
X26.406 Y38.991
X26.509 Y38.804
X26.605 Y38.613
X26.691 Y38.417
X26.769 Y38.218
X26.839 Y38.016
X26.899 Y37.811
X26.95 Y37.603
X26.991 Y37.394
X27.024 Y37.182
X27.046 Y36.97
X27.06 Y36.757
X27.064 Y36.543
X27.058 Y36.329
X27.043 Y36.116
X27.018 Y35.904
X26.983 Y35.693
X26.939 Y35.484
X26.886 Y35.277
X26.823 Y35.072
X26.751 Y34.871
X26.67 Y34.673
X26.581 Y34.479
X26.482 Y34.289
X26.375 Y34.104
X26.26 Y33.924
X26.137 Y33.749
X26.006 Y33.58
X25.868 Y33.417
X25.722 Y33.261
X25.57 Y33.111
X25.411 Y32.968
X25.245 Y32.833
X25.074 Y32.705
X24.897 Y32.585
X24.715 Y32.473
X24.528 Y32.37
X24.336 Y32.275
X24.14 Y32.189
X23.941 Y32.112
X23.739 Y32.044
X23.533 Y31.985
X23.325 Y31.935
X23.115 Y31.894
X22.904 Y31.862
X22.691 Y31.841
X22.478 Y31.828
X22.264 Y31.825
X22.051 Y31.832
X21.837 Y31.848
X21.625 Y31.873
X21.414 Y31.908
X21.205 Y31.952
X20.998 Y32.006
X20.794 Y32.069
X20.593 Y32.141
X20.395 Y32.222
X20.201 Y32.312
X20.011 Y32.41
X19.826 Y32.517
X19.646 Y32.632
X19.471 Y32.754
X19.301 Y32.885
X19.138 Y33.022
X18.98 Y33.167
X18.83 Y33.318
X18.686 Y33.477
X18.549 Y33.641
X18.42 Y33.811
X18.298 Y33.987
X18.184 Y34.168
X18.078 Y34.353
X17.98 Y34.543
X17.89 Y34.737
X17.809 Y34.935
X17.737 Y35.136
X17.674 Y35.341
X17.621 Y35.548
X17.576 Y35.757
X17.541 Y35.967
X17.515 Y36.18
X17.499 Y36.393
X17.492 Y36.606
X17.494 Y36.82
X17.506 Y37.034
X17.528 Y37.246
X17.558 Y37.458
X17.599 Y37.668
X17.648 Y37.876
X17.706 Y38.081
X17.774 Y38.284
X17.85 Y38.484
X17.935 Y38.68
X18.029 Y38.872
X18.13 Y39.06
X18.241 Y39.243
X18.359 Y39.422
X18.485 Y39.594
X18.618 Y39.761
X18.759 Y39.922
X18.907 Y40.076
X19.062 Y40.224
X19.223 Y40.365
X19.389 Y40.498
X19.562 Y40.624
X19.74 Y40.743
X19.923 Y40.853
X20.111 Y40.955
X20.303 Y41.049
X20.499 Y41.134
X20.699 Y41.211
X20.901 Y41.278
X21.107 Y41.337
X21.315 Y41.386
X21.525 Y41.426
X21.736 Y41.458
X21.949 Y41.479
X22.162 Y41.492
X22.376 Y41.495
X22.59 Y41.488
X22.803 Y41.472
X23.015 Y41.447
X23.226 Y41.412
X23.435 Y41.368
X23.643 Y41.316
X23.847 Y41.254
X24.049 Y41.183
X24.247 Y41.103
X24.442 Y41.014
X24.632 Y40.917
X24.818 Y40.812
X24.999 Y40.699
X25.175 Y40.577
X25.346 Y40.449
X25.511 Y40.312
X25.669 Y40.169
X25.822 Y40.019
X25.967 Y39.863
X26.106 Y39.7
X26.237 Y39.531
X26.361 Y39.357
X26.478 Y39.178
X26.586 Y38.994
X26.687 Y38.805
X26.779 Y38.612
X26.863 Y38.416
X26.939 Y38.216
X27.005 Y38.013
X27.064 Y37.807
X27.113 Y37.599
X27.153 Y37.389
X27.184 Y37.178
X27.206 Y36.965
X27.219 Y36.752
X27.222 Y36.538
X27.216 Y36.324
X27.201 Y36.111
X27.177 Y35.899
X27.143 Y35.688
X27.1 Y35.478
X27.048 Y35.271
X26.987 Y35.066
X26.917 Y34.864
X26.838 Y34.665
X26.751 Y34.47
X26.656 Y34.279
X26.552 Y34.092
X26.44 Y33.91
X26.32 Y33.733
X26.193 Y33.561
X26.058 Y33.395
X25.916 Y33.235
X25.767 Y33.082
X25.612 Y32.935
X25.45 Y32.795
X25.283 Y32.662
X25.11 Y32.537
X24.931 Y32.419
X24.748 Y32.31
X24.56 Y32.208
X24.367 Y32.115
X24.171 Y32.03
X23.971 Y31.954
X23.768 Y31.887
X23.563 Y31.828
X23.355 Y31.779
X23.145 Y31.738
X22.934 Y31.707
X22.721 Y31.684
X22.508 Y31.671
X22.294 Y31.667
X22.08 Y31.672
X21.867 Y31.686
X21.654 Y31.71
X21.443 Y31.742
X21.233 Y31.784
X21.026 Y31.835
X20.821 Y31.894
X20.618 Y31.963
X20.419 Y32.04
X20.223 Y32.126
X20.031 Y32.221
X19.844 Y32.323
X19.661 Y32.434
X19.483 Y32.552
X19.31 Y32.677
X19.142 Y32.81
X18.981 Y32.95
X18.825 Y33.097
X18.676 Y33.25
X18.534 Y33.41
X18.399 Y33.575
X18.271 Y33.746
X18.15 Y33.923
X18.037 Y34.104
X17.931 Y34.29
X17.834 Y34.48
X17.745 Y34.675
X17.664 Y34.873
X17.592 Y35.074
X17.528 Y35.278
X17.473 Y35.484
X17.427 Y35.693
X17.391 Y35.904
X17.363 Y36.116
X17.345 Y36.329
X17.335 Y36.542
Y36.756
X17.344 Y36.97
X17.362 Y37.183
X17.389 Y37.395
X17.425 Y37.605
X17.47 Y37.814
X17.524 Y38.021
X17.587 Y38.225
X17.658 Y38.427
X17.738 Y38.625
X17.826 Y38.82
X17.923 Y39.011
X18.027 Y39.197
X18.14 Y39.379
X18.26 Y39.556
X18.387 Y39.727
X18.522 Y39.893
X18.664 Y40.053
X18.813 Y40.206
X18.968 Y40.353
X19.13 Y40.494
X19.297 Y40.627
X19.469 Y40.753
X19.647 Y40.871
X19.83 Y40.982
X20.017 Y41.085
X20.209 Y41.18
X20.405 Y41.266
X20.604 Y41.344
X20.806 Y41.414
X21.011 Y41.474
X21.218 Y41.526
X21.427 Y41.569
X21.638 Y41.604
X21.851 Y41.629
X22.064 Y41.645
X22.277 Y41.652
X22.491 Y41.65
X22.705 Y41.639
X22.917 Y41.619
X23.129 Y41.589
X23.34 Y41.551
X23.548 Y41.504
X23.754 Y41.448
X23.958 Y41.383
X24.159 Y41.31
X24.356 Y41.228
X24.55 Y41.138
X24.74 Y41.039
X24.925 Y40.933
X25.106 Y40.819
X25.281 Y40.697
X25.452 Y40.567
X25.616 Y40.431
X25.775 Y40.288
X25.927 Y40.138
X26.073 Y39.982
X26.212 Y39.819
X26.345 Y39.651
X26.47 Y39.478
X26.588 Y39.3
X26.698 Y39.117
X26.8 Y38.929
X26.895 Y38.737
X26.982 Y38.542
X27.06 Y38.343
X27.13 Y38.141
X27.192 Y37.937
X27.245 Y37.73
X27.29 Y37.521
X27.325 Y37.31
X27.352 Y37.098
X27.37 Y36.885
X27.379 Y36.671
Y36.457
X27.37 Y36.244
X27.352 Y36.031
X27.325 Y35.819
X27.289 Y35.608
X27.244 Y35.399
X27.191 Y35.192
X27.128 Y34.988
X27.058 Y34.786
X26.978 Y34.588
X26.89 Y34.393
X26.794 Y34.202
X26.69 Y34.015
X26.578 Y33.833
X26.459 Y33.655
X26.332 Y33.483
X26.198 Y33.317
X26.058 Y33.156
X25.91 Y33.001
X25.756 Y32.853
X25.596 Y32.711
X25.43 Y32.576
X25.259 Y32.449
X25.082 Y32.329
X24.9 Y32.216
X24.714 Y32.111
X24.523 Y32.014
X24.329 Y31.925
X24.131 Y31.845
X23.93 Y31.773
X23.726 Y31.709
X23.519 Y31.654
X23.31 Y31.608
X23.1 Y31.57
X22.888 Y31.542
X22.675 Y31.522
X22.462 Y31.511
X22.248 Y31.509
X22.034 Y31.516
X21.821 Y31.531
X21.609 Y31.556
X21.398 Y31.589
X21.188 Y31.632
X20.981 Y31.683
X20.775 Y31.743
X20.573 Y31.811
X20.373 Y31.888
X20.177 Y31.973
X19.985 Y32.067
X19.797 Y32.168
X19.613 Y32.277
X19.434 Y32.394
X19.26 Y32.517
X19.091 Y32.648
X18.928 Y32.786
X18.77 Y32.931
X18.619 Y33.082
X18.474 Y33.239
X18.335 Y33.402
X18.204 Y33.57
X18.08 Y33.744
X17.962 Y33.923
X17.853 Y34.107
X17.751 Y34.294
X17.656 Y34.486
X17.57 Y34.682
X17.492 Y34.881
X17.422 Y35.083
X17.361 Y35.287
X17.308 Y35.495
X17.264 Y35.704
X17.229 Y35.915
X17.202 Y36.127
X17.185 Y36.34
X17.176 Y36.553
Y36.767
X17.185 Y36.981
X17.203 Y37.194
X17.23 Y37.406
X17.266 Y37.617
X17.31 Y37.826
X17.363 Y38.033
X17.425 Y38.238
X17.494 Y38.44
X17.572 Y38.639
X17.659 Y38.834
X17.753 Y39.026
X17.855 Y39.214
X17.964 Y39.397
X18.082 Y39.576
X18.206 Y39.75
X18.338 Y39.918
X18.477 Y40.081
X18.622 Y40.238
X18.774 Y40.388
X18.932 Y40.532
X19.095 Y40.67
X19.265 Y40.8
X19.439 Y40.924
X19.618 Y41.04
X19.802 Y41.149
X19.991 Y41.25
X20.183 Y41.343
X20.38 Y41.427
X20.579 Y41.504
X20.782 Y41.572
X20.987 Y41.632
X21.194 Y41.684
X21.404 Y41.726
X21.615 Y41.76
X21.827 Y41.786
X22.04 Y41.802
X22.254 Y41.81
X22.468 Y41.809
X22.681 Y41.799
X22.894 Y41.78
X23.106 Y41.753
X23.317 Y41.716
X23.526 Y41.672
X23.733 Y41.618
X23.937 Y41.556
X24.139 Y41.486
X24.338 Y41.408
X24.533 Y41.321
X24.725 Y41.226
X24.913 Y41.123
X25.096 Y41.013
X25.274 Y40.895
X25.447 Y40.77
X25.615 Y40.638
X25.778 Y40.499
X25.934 Y40.354
X26.085 Y40.202
X26.229 Y40.044
X26.367 Y39.881
X26.498 Y39.712
X26.622 Y39.537
X26.738 Y39.358
X26.848 Y39.175
X26.949 Y38.987
X27.043 Y38.795
X27.13 Y38.599
X27.208 Y38.4
X27.278 Y38.198
X27.34 Y37.994
X27.394 Y37.787
X27.44 Y37.578
X27.477 Y37.368
X27.505 Y37.156
X27.525 Y36.943
X27.536 Y36.729
X27.538 Y36.516
X27.532 Y36.302
X27.516 Y36.089
X27.493 Y35.876
X27.46 Y35.665
X27.419 Y35.455
X27.369 Y35.247
X27.311 Y35.042
X27.245 Y34.839
X27.17 Y34.638
X27.087 Y34.441
X26.995 Y34.248
X26.896 Y34.059
X26.79 Y33.873
X26.676 Y33.693
X26.554 Y33.517
X26.426 Y33.346
X26.29 Y33.18
X26.148 Y33.021
X26. Y32.867
X25.845 Y32.719
X25.685 Y32.578
X25.518 Y32.444
X25.347 Y32.317
X25.17 Y32.197
X24.988 Y32.084
X24.802 Y31.979
X24.612 Y31.881
X24.418 Y31.792
X24.22 Y31.71
X24.019 Y31.636
X23.816 Y31.571
X23.61 Y31.514
X23.402 Y31.466
X23.192 Y31.426
X22.98 Y31.394
X22.768 Y31.371
X22.555 Y31.357
X22.341 Y31.351
X22.127 Y31.354
X21.914 Y31.365
X21.701 Y31.385
X21.489 Y31.414
X21.278 Y31.451
X21.07 Y31.497
X20.863 Y31.551
X20.659 Y31.614
X20.457 Y31.685
X20.259 Y31.764
X20.063 Y31.852
X19.872 Y31.947
X19.684 Y32.049
X19.501 Y32.16
X19.323 Y32.277
X19.149 Y32.402
X18.981 Y32.533
X18.818 Y32.672
X18.66 Y32.816
X18.509 Y32.967
X18.364 Y33.124
X18.225 Y33.287
X18.093 Y33.455
X17.968 Y33.628
X17.849 Y33.806
X17.738 Y33.989
X17.635 Y34.176
X17.538 Y34.367
X17.45 Y34.561
X17.369 Y34.759
X17.296 Y34.96
X17.232 Y35.164
X17.176 Y35.37
X17.128 Y35.579
X17.089 Y35.789
X17.058 Y36.
X17.036 Y36.213
X17.022 Y36.426
X17.017 Y36.64
X17.021 Y36.853
X17.033 Y37.067
X17.054 Y37.28
X17.083 Y37.491
X17.121 Y37.702
X17.168 Y37.91
X17.222 Y38.117
X17.285 Y38.321
X17.356 Y38.523
X17.435 Y38.722
X17.522 Y38.917
X17.617 Y39.109
X17.719 Y39.296
X17.829 Y39.48
X17.946 Y39.658
X18.07 Y39.832
X18.202 Y40.001
X18.34 Y40.164
X18.484 Y40.322
X18.635 Y40.474
X18.791 Y40.619
X18.954 Y40.758
X19.121 Y40.89
X19.294 Y41.016
X19.472 Y41.135
X19.655 Y41.246
X19.842 Y41.35
X20.032 Y41.446
X20.227 Y41.534
X20.425 Y41.615
X20.626 Y41.688
X20.83 Y41.752
X21.036 Y41.808
X21.244 Y41.856
X21.455 Y41.896
X21.666 Y41.927
X21.879 Y41.949
X22.092 Y41.963
X22.306 Y41.969
X22.519 Y41.966
X22.733 Y41.954
X22.946 Y41.934
X23.157 Y41.905
X23.368 Y41.868
X23.577 Y41.823
X23.784 Y41.769
X23.988 Y41.707
X24.19 Y41.636
X24.389 Y41.558
X24.584 Y41.472
X24.776 Y41.378
X24.964 Y41.276
X25.148 Y41.167
X25.327 Y41.05
X25.502 Y40.927
X25.671 Y40.796
X25.835 Y40.659
X25.994 Y40.515
X26.146 Y40.366
X26.293 Y40.21
X26.433 Y40.049
X26.567 Y39.882
X26.694 Y39.71
X26.814 Y39.533
X26.927 Y39.352
X27.033 Y39.166
X27.131 Y38.977
X27.222 Y38.783
X27.306 Y38.586
X27.381 Y38.386
X27.449 Y38.184
X27.509 Y37.978
X27.56 Y37.771
X27.604 Y37.562
X27.639 Y37.351
X27.666 Y37.139
X27.685 Y36.926
X27.695 Y36.712
X27.697 Y36.499
X27.69 Y36.285
X27.674 Y36.072
X27.65 Y35.859
X27.618 Y35.648
X27.577 Y35.438
X27.528 Y35.23
X27.471 Y35.024
X27.406 Y34.821
X27.332 Y34.62
X27.251 Y34.422
X27.161 Y34.228
X27.065 Y34.038
X26.96 Y33.851
X26.848 Y33.669
X26.73 Y33.491
X26.604 Y33.318
X26.471 Y33.15
X26.332 Y32.988
X26.187 Y32.831
X26.035 Y32.681
X25.878 Y32.536
X25.715 Y32.398
X25.546 Y32.267
X25.372 Y32.142
X25.194 Y32.024
X25.011 Y31.914
X24.824 Y31.811
X24.632 Y31.715
X24.437 Y31.628
X24.239 Y31.547
X24.038 Y31.475
X23.834 Y31.411
X23.628 Y31.355
X23.42 Y31.307
X23.21 Y31.268
X22.998 Y31.237
X22.786 Y31.214
X22.572 Y31.199
X22.359 Y31.193
X22.145 Y31.195
X21.931 Y31.205
X21.718 Y31.224
X21.506 Y31.251
X21.296 Y31.287
X21.086 Y31.331
X20.879 Y31.383
X20.674 Y31.443
X20.472 Y31.512
X20.272 Y31.588
X20.075 Y31.672
X19.882 Y31.764
X19.693 Y31.864
X19.508 Y31.97
X19.327 Y32.084
X19.151 Y32.205
X18.979 Y32.333
X18.813 Y32.467
X18.652 Y32.608
X18.497 Y32.755
X18.348 Y32.908
X18.204 Y33.066
X18.067 Y33.23
X17.937 Y33.4
X17.813 Y33.574
X17.696 Y33.753
X17.586 Y33.936
X17.483 Y34.123
X17.387 Y34.314
X17.299 Y34.509
X17.219 Y34.707
X17.147 Y34.909
X17.082 Y35.112
X17.026 Y35.318
X16.977 Y35.527
X16.937 Y35.737
X16.905 Y35.948
X16.882 Y36.16
X16.866 Y36.374
X16.86 Y36.587
X16.861 Y36.801
X16.871 Y37.015
X16.889 Y37.228
X16.916 Y37.44
X16.951 Y37.651
X16.994 Y37.86
X17.045 Y38.068
X17.104 Y38.273
X17.171 Y38.476
X17.246 Y38.676
X17.329 Y38.873
X17.419 Y39.067
X17.517 Y39.257
X17.622 Y39.443
X17.734 Y39.625
X17.853 Y39.802
X17.98 Y39.975
X18.113 Y40.142
X18.252 Y40.304
X18.398 Y40.461
X18.549 Y40.612
X18.707 Y40.756
X18.87 Y40.894
X19.038 Y41.026
X19.211 Y41.151
X19.389 Y41.27
X19.572 Y41.381
X19.759 Y41.485
X19.949 Y41.582
X20.144 Y41.671
X20.341 Y41.752
X20.542 Y41.826
X20.745 Y41.892
X20.951 Y41.95
X21.159 Y41.999
X21.369 Y42.041
X21.58 Y42.074
X21.792 Y42.1
X22.005 Y42.117
X22.219 Y42.125
X22.432 Y42.126
X22.646 Y42.118
X22.859 Y42.102
X23.071 Y42.077
X23.283 Y42.045
X23.493 Y42.004
X23.701 Y41.955
X23.907 Y41.898
X24.11 Y41.832
X24.311 Y41.759
X24.509 Y41.679
X24.704 Y41.59
X24.895 Y41.494
X25.082 Y41.391
X25.265 Y41.281
X25.443 Y41.163
X25.617 Y41.039
X25.786 Y40.908
X25.949 Y40.77
X26.108 Y40.626
X26.26 Y40.476
X26.406 Y40.32
X26.547 Y40.159
X26.681 Y39.993
X26.809 Y39.821
X26.93 Y39.645
X27.044 Y39.464
X27.151 Y39.279
X27.251 Y39.091
X27.344 Y38.898
X27.429 Y38.702
X27.507 Y38.503
X27.577 Y38.301
X27.64 Y38.097
X27.694 Y37.89
X27.741 Y37.681
X27.78 Y37.471
X27.811 Y37.26
X27.834 Y37.047
X27.848 Y36.834
X27.855 Y36.62
X27.853 Y36.407
X27.842 Y36.193
X27.824 Y35.98
X27.797 Y35.768
X27.762 Y35.557
X27.719 Y35.348
X27.668 Y35.14
X27.609 Y34.935
X27.542 Y34.732
X27.468 Y34.531
X27.385 Y34.334
X27.295 Y34.14
X27.198 Y33.95
X27.093 Y33.764
X26.981 Y33.582
X26.862 Y33.404
X26.736 Y33.231
X26.604 Y33.063
X26.466 Y32.9
X26.321 Y32.743
X26.17 Y32.591
X26.014 Y32.446
X25.852 Y32.306
X25.684 Y32.173
X25.512 Y32.047
X25.335 Y31.927
X25.153 Y31.815
X24.967 Y31.709
X24.778 Y31.611
X24.584 Y31.52
X24.387 Y31.436
X24.188 Y31.36
X23.985 Y31.292
X23.78 Y31.232
X23.573 Y31.179
X23.364 Y31.135
X23.153 Y31.099
X22.941 Y31.07
X22.728 Y31.05
X22.515 Y31.038
X22.301 Y31.034
X22.087 Y31.038
X21.874 Y31.051
X21.661 Y31.071
X21.449 Y31.1
X21.239 Y31.136
X21.03 Y31.181
X20.823 Y31.234
X20.618 Y31.295
X20.415 Y31.363
X20.216 Y31.44
X20.019 Y31.524
X19.826 Y31.615
X19.636 Y31.714
X19.451 Y31.82
X19.269 Y31.933
X19.092 Y32.053
X18.92 Y32.179
X18.752 Y32.312
X18.59 Y32.451
X18.433 Y32.597
X18.282 Y32.748
X18.137 Y32.904
X17.997 Y33.066
X17.864 Y33.234
X17.737 Y33.406
X17.617 Y33.582
X17.504 Y33.764
X17.397 Y33.949
X17.298 Y34.138
X17.205 Y34.331
X17.121 Y34.527
X17.043 Y34.726
X16.973 Y34.928
X16.911 Y35.133
X16.857 Y35.34
X16.811 Y35.549
X16.773 Y35.759
X16.743 Y35.97
X16.72 Y36.183
X16.706 Y36.396
X16.701 Y36.61
X16.703 Y36.824
X16.714 Y37.037
X16.732 Y37.25
X16.759 Y37.462
X16.794 Y37.673
X16.837 Y37.883
X16.887 Y38.09
X16.946 Y38.296
X17.012 Y38.499
X17.085 Y38.7
X17.167 Y38.898
X17.255 Y39.092
X17.351 Y39.283
X17.455 Y39.47
X17.565 Y39.653
X17.682 Y39.832
X17.806 Y40.006
X17.936 Y40.176
X18.073 Y40.34
X18.216 Y40.499
X18.365 Y40.652
X18.52 Y40.8
X18.68 Y40.942
X18.845 Y41.077
X19.015 Y41.206
X19.191 Y41.329
X19.37 Y41.444
X19.554 Y41.553
X19.742 Y41.655
X19.934 Y41.75
X20.129 Y41.837
X20.327 Y41.917
X20.529 Y41.989
X20.732 Y42.053
X20.938 Y42.11
X21.147 Y42.159
X21.356 Y42.2
X21.568 Y42.233
X21.78 Y42.258
X21.993 Y42.275
X22.206 Y42.284
X22.42
X22.634 Y42.277
X22.847 Y42.262
X23.06 Y42.238
X23.271 Y42.207
X23.481 Y42.168
X23.69 Y42.12
X23.896 Y42.065
X24.1 Y42.002
X24.302 Y41.932
X24.501 Y41.853
X24.697 Y41.768
X24.889 Y41.675
X25.078 Y41.575
X25.263 Y41.467
X25.444 Y41.353
X25.62 Y41.232
X25.792 Y41.105
X25.958 Y40.971
X26.119 Y40.83
X26.275 Y40.684
X26.426 Y40.532
X26.57 Y40.375
X26.709 Y40.212
X26.841 Y40.044
X26.967 Y39.871
X27.087 Y39.694
X27.2 Y39.513
X27.306 Y39.327
X27.405 Y39.138
X27.497 Y38.945
X27.582 Y38.748
X27.659 Y38.549
X27.729 Y38.347
X27.791 Y38.143
X27.846 Y37.936
X27.893 Y37.728
X27.933 Y37.518
X27.965 Y37.306
X27.988 Y37.094
X28.004 Y36.881
X28.012 Y36.667
Y36.453
X28.003 Y36.24
X27.987 Y36.027
X27.963 Y35.814
X27.931 Y35.603
X27.891 Y35.393
X27.843 Y35.185
X27.787 Y34.978
X27.724 Y34.774
X27.653 Y34.572
X27.574 Y34.374
X27.488 Y34.178
X27.395 Y33.986
X27.294 Y33.797
X27.186 Y33.612
X27.072 Y33.432
X26.951 Y33.256
X26.823 Y33.084
X26.689 Y32.918
X26.549 Y32.756
X26.403 Y32.6
X26.251 Y32.449
X26.094 Y32.305
X25.931 Y32.166
X25.763 Y32.034
X25.591 Y31.908
X25.413 Y31.789
X25.231 Y31.677
X25.045 Y31.571
X24.856 Y31.473
X24.663 Y31.381
X24.466 Y31.297
X24.266 Y31.22
X24.064 Y31.151
X23.859 Y31.09
X23.653 Y31.036
X23.444 Y30.99
X23.234 Y30.952
X23.022 Y30.921
X22.809 Y30.899
X22.596 Y30.884
X22.383 Y30.877
X22.169 Y30.878
X21.955 Y30.887
X21.742 Y30.904
X21.53 Y30.928
X21.319 Y30.961
X21.109 Y31.002
X20.9 Y31.05
X20.694 Y31.106
X20.49 Y31.17
X20.289 Y31.242
X20.09 Y31.321
X19.895 Y31.407
X19.702 Y31.501
X19.514 Y31.601
X19.329 Y31.709
X19.148 Y31.823
X18.972 Y31.944
X18.8 Y32.071
X18.633 Y32.205
X18.472 Y32.344
X18.315 Y32.49
X18.164 Y32.641
X18.019 Y32.798
X17.88 Y32.96
X17.746 Y33.127
X17.619 Y33.299
X17.498 Y33.475
X17.384 Y33.656
X17.276 Y33.841
X17.176 Y34.029
X17.082 Y34.221
X16.995 Y34.417
X16.916 Y34.615
X16.844 Y34.817
X16.78 Y35.02
X16.723 Y35.227
X16.674 Y35.435
X16.632 Y35.644
X16.599 Y35.855
X16.573 Y36.068
X16.555 Y36.281
X16.545 Y36.494
X16.543 Y36.708
X16.549 Y36.921
X16.563 Y37.135
X16.584 Y37.347
X16.614 Y37.559
X16.651 Y37.77
X16.696 Y37.979
X16.749 Y38.186
X16.809 Y38.391
X16.877 Y38.594
X16.952 Y38.794
X17.034 Y38.991
X17.124 Y39.185
X17.221 Y39.376
X17.325 Y39.563
X17.435 Y39.745
X17.553 Y39.924
X17.677 Y40.098
X17.807 Y40.268
X17.944 Y40.432
X18.086 Y40.591
X18.234 Y40.745
X18.388 Y40.894
X18.547 Y41.036
X18.712 Y41.173
X18.881 Y41.303
X19.055 Y41.427
X19.234 Y41.545
X19.416 Y41.656
X19.603 Y41.76
X19.793 Y41.857
X19.987 Y41.947
X20.184 Y42.03
X20.384 Y42.106
X20.587 Y42.174
X20.792 Y42.235
X20.999 Y42.288
X21.208 Y42.333
X21.418 Y42.371
X21.63 Y42.4
X21.843 Y42.422
X22.056 Y42.436
X22.27 Y42.443
X22.483 Y42.441
X22.697 Y42.432
X22.91 Y42.415
X23.122 Y42.39
X23.333 Y42.357
X23.543 Y42.317
X23.752 Y42.269
X23.958 Y42.213
X24.162 Y42.149
X24.364 Y42.078
X24.562 Y42.
X24.758 Y41.914
X24.951 Y41.821
X25.14 Y41.721
X25.325 Y41.615
X25.506 Y41.501
X25.683 Y41.381
X25.856 Y41.255
X26.023 Y41.122
X26.186 Y40.983
X26.343 Y40.838
X26.495 Y40.688
X26.641 Y40.532
X26.782 Y40.371
X26.916 Y40.205
X27.045 Y40.034
X27.167 Y39.859
X27.283 Y39.679
X27.392 Y39.496
X27.495 Y39.308
X27.591 Y39.117
X27.68 Y38.923
X27.761 Y38.725
X27.836 Y38.525
X27.903 Y38.322
X27.963 Y38.117
X28.015 Y37.909
X28.06 Y37.7
X28.098 Y37.49
X28.128 Y37.278
X28.15 Y37.066
X28.164 Y36.852
X28.171 Y36.639
X28.17 Y36.425
X28.161 Y36.211
X28.144 Y35.998
X28.119 Y35.786
X28.087 Y35.575
X28.047 Y35.365
X27.999 Y35.156
X27.944 Y34.95
X27.881 Y34.746
X27.811 Y34.544
X27.733 Y34.344
X27.648 Y34.148
X27.556 Y33.955
X27.457 Y33.766
X27.351 Y33.58
X27.239 Y33.398
X27.12 Y33.221
X26.994 Y33.048
X26.862 Y32.88
X26.725 Y32.716
X26.581 Y32.558
X26.432 Y32.405
X26.277 Y32.257
X26.117 Y32.116
X25.952 Y31.98
X25.782 Y31.851
X25.607 Y31.728
X25.428 Y31.611
X25.244 Y31.501
X25.057 Y31.398
X24.866 Y31.302
X24.672 Y31.212
X24.475 Y31.13
X24.275 Y31.055
X24.072 Y30.987
X23.867 Y30.927
X23.66 Y30.874
X23.451 Y30.829
X23.24 Y30.792
X23.029 Y30.762
X22.816 Y30.74
X22.603 Y30.725
X22.389 Y30.719
X22.175 Y30.72
X21.962 Y30.728
X21.749 Y30.744
X21.536 Y30.768
X21.325 Y30.8
X21.115 Y30.839
X20.906 Y30.886
X20.699 Y30.94
X20.495 Y31.002
X20.293 Y31.072
X20.093 Y31.149
X19.897 Y31.233
X19.703 Y31.324
X19.513 Y31.422
X19.327 Y31.526
X19.144 Y31.638
X18.966 Y31.755
X18.792 Y31.879
X18.622 Y32.01
X18.458 Y32.146
X18.298 Y32.288
X18.144 Y32.436
X17.995 Y32.59
X17.852 Y32.748
X17.714 Y32.912
X17.583 Y33.081
X17.457 Y33.254
X17.338 Y33.431
X17.225 Y33.613
X17.119 Y33.798
X17.019 Y33.987
X16.926 Y34.18
X16.841 Y34.375
X16.762 Y34.574
X16.691 Y34.776
X16.626 Y34.98
X16.57 Y35.186
X16.521 Y35.394
X16.479 Y35.603
X16.445 Y35.814
X16.418 Y36.026
X16.399 Y36.239
X16.388 Y36.453
X16.385 Y36.667
X16.389 Y36.88
X16.401 Y37.094
X16.421 Y37.307
X16.448 Y37.519
X16.483 Y37.729
X16.525 Y37.939
X16.575 Y38.147
X16.633 Y38.353
X16.697 Y38.557
X16.769 Y38.758
X16.848 Y38.957
X16.934 Y39.152
X17.027 Y39.345
X17.127 Y39.534
X17.233 Y39.719
X17.347 Y39.9
X17.467 Y40.077
X17.593 Y40.25
X17.725 Y40.418
X17.863 Y40.581
X18.007 Y40.739
X18.157 Y40.891
X18.312 Y41.039
X18.472 Y41.18
X18.637 Y41.316
X18.807 Y41.446
X18.981 Y41.569
X19.16 Y41.686
X19.343 Y41.797
X19.53 Y41.901
X19.72 Y41.998
X19.914 Y42.088
X20.111 Y42.171
X20.311 Y42.248
X20.513 Y42.316
X20.718 Y42.378
X20.924 Y42.432
X21.133 Y42.479
X21.343 Y42.518
X21.555 Y42.55
X21.767 Y42.574
X21.98 Y42.59
X22.194 Y42.599
X22.407 Y42.601
X22.621 Y42.594
X22.834 Y42.58
X23.047 Y42.559
X23.259 Y42.53
X23.469 Y42.493
X23.679 Y42.449
X23.886 Y42.397
X24.091 Y42.337
X24.294 Y42.271
X24.495 Y42.197
X24.693 Y42.116
X24.888 Y42.028
X25.079 Y41.933
X25.267 Y41.831
X25.452 Y41.723
X25.632 Y41.608
X25.808 Y41.487
X25.979 Y41.36
X26.146 Y41.226
X26.308 Y41.086
X26.465 Y40.941
X26.616 Y40.79
X26.763 Y40.634
X26.903 Y40.473
X27.038 Y40.307
X27.166 Y40.136
X27.289 Y39.961
X27.406 Y39.782
X27.516 Y39.599
X27.619 Y39.412
X27.716 Y39.221
X27.806 Y39.027
X27.889 Y38.831
X27.965 Y38.631
X28.035 Y38.429
X28.097 Y38.224
X28.152 Y38.017
X28.199 Y37.809
X28.24 Y37.599
X28.273 Y37.388
X28.298 Y37.176
X28.316 Y36.963
X28.327 Y36.749
X28.329 Y36.535
X28.325 Y36.322
X28.312 Y36.108
X28.292 Y35.896
X28.264 Y35.684
X28.229 Y35.473
X28.186 Y35.263
X28.136 Y35.055
X28.079 Y34.85
X28.015 Y34.646
X27.943 Y34.444
X27.864 Y34.246
X27.778 Y34.05
X27.685 Y33.858
X27.585 Y33.669
X27.478 Y33.483
X27.365 Y33.302
X27.246 Y33.125
X27.12 Y32.952
X26.988 Y32.783
X26.851 Y32.62
X26.708 Y32.461
X26.559 Y32.308
X26.405 Y32.16
X26.245 Y32.017
X26.081 Y31.881
X25.912 Y31.75
X25.738 Y31.626
X25.56 Y31.507
X25.377 Y31.396
X25.191 Y31.291
X25.002 Y31.192
X24.808 Y31.1
X24.612 Y31.015
X24.413 Y30.937
X24.212 Y30.867
X24.008 Y30.803
X23.801 Y30.747
X23.593 Y30.698
X23.384 Y30.656
X23.173 Y30.622
X22.961 Y30.595
X22.748 Y30.576
X22.534 Y30.564
X22.32 Y30.56
X22.107 Y30.563
X21.893 Y30.574
X21.68 Y30.592
X21.468 Y30.617
X21.257 Y30.65
X21.047 Y30.691
X20.839 Y30.739
X20.632 Y30.794
X20.428 Y30.857
X20.226 Y30.927
X20.027 Y31.004
X19.83 Y31.089
X19.637 Y31.18
X19.447 Y31.277
X19.26 Y31.382
X19.077 Y31.493
X18.898 Y31.61
X18.724 Y31.733
X18.554 Y31.863
X18.388 Y31.998
X18.228 Y32.139
X18.072 Y32.286
X17.922 Y32.438
X17.777 Y32.595
X17.638 Y32.757
X17.504 Y32.924
X17.376 Y33.095
X17.254 Y33.271
X17.139 Y33.451
X17.03 Y33.634
X16.927 Y33.822
X16.831 Y34.013
X16.741 Y34.207
X16.658 Y34.404
X16.583 Y34.604
X16.514 Y34.806
X16.453 Y35.011
X16.399 Y35.218
X16.352 Y35.426
X16.312 Y35.636
X16.28 Y35.848
X16.255 Y36.06
X16.238 Y36.273
X16.228 Y36.487
X16.226 Y36.7
X16.231 Y36.914
X16.244 Y37.127
X16.265 Y37.34
X16.293 Y37.552
X16.328 Y37.763
X16.37 Y37.972
X16.42 Y38.18
X16.477 Y38.386
X16.541 Y38.59
X16.613 Y38.792
X16.691 Y38.991
X16.776 Y39.187
X16.868 Y39.38
X16.966 Y39.57
X17.071 Y39.756
X17.183 Y39.938
X17.301 Y40.116
X17.426 Y40.29
X17.556 Y40.459
X17.692 Y40.624
X17.834 Y40.784
X17.981 Y40.939
X18.134 Y41.089
X18.291 Y41.233
X18.454 Y41.372
X18.622 Y41.504
X18.794 Y41.631
X18.97 Y41.752
X19.151 Y41.866
X19.335 Y41.974
X19.523 Y42.076
X19.715 Y42.171
X19.91 Y42.259
X20.107 Y42.34
X20.308 Y42.415
X20.511 Y42.482
X20.716 Y42.542
X20.923 Y42.595
X21.132 Y42.641
X21.342 Y42.679
X21.553 Y42.71
X21.766 Y42.733
X21.979 Y42.749
X22.193 Y42.758
X22.406 Y42.759
X22.62 Y42.753
X22.833 Y42.739
X23.046 Y42.718
X23.258 Y42.69
X23.469 Y42.654
X23.678 Y42.611
X23.886 Y42.56
X24.092 Y42.503
X24.295 Y42.438
X24.497 Y42.366
X24.695 Y42.287
X24.891 Y42.201
X25.084 Y42.108
X25.273 Y42.009
X25.459 Y41.903
X25.641 Y41.791
X25.819 Y41.672
X25.992 Y41.548
X26.161 Y41.417
X26.326 Y41.281
X26.486 Y41.139
X26.64 Y40.991
X26.789 Y40.838
X26.933 Y40.68
X27.072 Y40.517
X27.205 Y40.35
X27.332 Y40.178
X27.453 Y40.001
X27.568 Y39.821
X27.676 Y39.637
X27.778 Y39.449
X27.874 Y39.258
X27.963 Y39.064
X28.046 Y38.867
X28.121 Y38.667
X28.19 Y38.464
X28.252 Y38.26
X28.306 Y38.053
X28.354 Y37.845
X28.394 Y37.635
X28.428 Y37.424
X28.454 Y37.211
X28.472 Y36.998
X28.484 Y36.785
X28.488 Y36.571
X28.484 Y36.358
X28.473 Y36.144
X28.455 Y35.931
X28.429 Y35.719
X28.396 Y35.508
X28.355 Y35.298
X28.308 Y35.089
X28.253 Y34.883
X28.191 Y34.678
X28.122 Y34.476
X28.047 Y34.276
X27.964 Y34.079
X27.874 Y33.885
X27.778 Y33.694
X27.675 Y33.507
X27.566 Y33.323
X27.45 Y33.143
X27.328 Y32.968
X27.2 Y32.796
X27.067 Y32.629
X26.927 Y32.467
X26.783 Y32.31
X26.632 Y32.158
X26.477 Y32.011
X26.317 Y31.87
X26.151 Y31.734
X25.982 Y31.604
X25.807 Y31.481
X25.629 Y31.363
X25.446 Y31.252
X25.26 Y31.147
X25.07 Y31.049
X24.877 Y30.957
X24.681 Y30.872
X24.482 Y30.794
X24.28 Y30.723
X24.076 Y30.658
X23.87 Y30.601
X23.663 Y30.551
X23.453 Y30.508
X23.243 Y30.472
X23.031 Y30.444
X22.818 Y30.423
X22.605 Y30.409
X22.391 Y30.403
X22.177
X21.964 Y30.411
X21.75 Y30.427
X21.538 Y30.449
X21.326 Y30.479
X21.116 Y30.516
X20.906 Y30.56
X20.699 Y30.612
X20.494 Y30.671
X20.29 Y30.737
X20.089 Y30.81
X19.891 Y30.89
X19.696 Y30.976
X19.503 Y31.07
X19.314 Y31.169
X19.129 Y31.275
X18.947 Y31.388
X18.769 Y31.506
X18.595 Y31.631
X18.426 Y31.761
X18.261 Y31.898
X18.101 Y32.039
X17.946 Y32.187
X17.796 Y32.339
X17.652 Y32.497
X17.513 Y32.659
X17.379 Y32.826
X17.251 Y32.997
X17.13 Y33.173
X17.014 Y33.352
X16.904 Y33.536
X16.8 Y33.723
X16.703 Y33.913
X16.612 Y34.107
X16.529 Y34.303
X16.451 Y34.503
X16.381 Y34.705
X16.318 Y34.909
X16.262 Y35.115
X16.212 Y35.323
X16.17 Y35.533
X16.135 Y35.743
X16.108 Y35.955
X16.087 Y36.168
X16.074 Y36.382
X16.068 Y36.595
X16.07 Y36.809
X16.079 Y37.023
X16.095 Y37.236
X16.119 Y37.448
X16.149 Y37.66
X16.187 Y37.87
X16.233 Y38.079
X16.285 Y38.286
X16.344 Y38.492
X16.41 Y38.695
X16.483 Y38.896
X16.562 Y39.094
X16.649 Y39.29
X16.742 Y39.482
X16.841 Y39.672
X16.947 Y39.857
X17.059 Y40.039
X17.178 Y40.217
X17.303 Y40.391
X17.433 Y40.56
X17.569 Y40.725
X17.711 Y40.885
X17.858 Y41.04
X18.01 Y41.19
X18.168 Y41.335
X18.33 Y41.474
X18.497 Y41.608
X18.668 Y41.736
X18.843 Y41.857
X19.023 Y41.973
X19.207 Y42.083
X19.394 Y42.186
X19.584 Y42.283
X19.778 Y42.373
X19.975 Y42.457
X20.174 Y42.534
X20.376 Y42.604
X20.58 Y42.668
X20.786 Y42.724
X20.994 Y42.773
X21.204 Y42.815
X21.415 Y42.85
X21.627 Y42.878
X21.84 Y42.898
X22.053 Y42.911
X22.267 Y42.917
X22.48 Y42.916
X22.694 Y42.907
X22.907 Y42.892
X23.12 Y42.869
X23.331 Y42.839
X23.542 Y42.801
X23.751 Y42.757
X23.958 Y42.705
X24.164 Y42.646
X24.367 Y42.581
X24.568 Y42.508
X24.767 Y42.429
X24.962 Y42.342
X25.155 Y42.25
X25.344 Y42.15
X25.53 Y42.045
X25.712 Y41.933
X25.89 Y41.815
X26.065 Y41.691
X26.234 Y41.561
X26.4 Y41.426
X26.56 Y41.285
X26.716 Y41.138
X26.866 Y40.986
X27.012 Y40.83
X27.152 Y40.668
X27.286 Y40.502
X27.415 Y40.332
X27.539 Y40.157
X27.656 Y39.978
X27.767 Y39.796
X27.872 Y39.609
X27.971 Y39.42
X28.063 Y39.227
X28.149 Y39.031
X28.228 Y38.833
X28.301 Y38.632
X28.367 Y38.428
X28.426 Y38.223
X28.478 Y38.016
X28.523 Y37.807
X28.561 Y37.596
X28.592 Y37.385
X28.617 Y37.172
X28.634 Y36.959
X28.643 Y36.746
X28.646 Y36.532
X28.641 Y36.318
X28.629 Y36.105
X28.61 Y35.892
X28.584 Y35.68
X28.55 Y35.469
X28.509 Y35.259
X28.462 Y35.051
X28.407 Y34.844
X28.345 Y34.639
X28.277 Y34.437
X28.201 Y34.237
X28.119 Y34.039
X28.031 Y33.845
X27.935 Y33.654
X27.834 Y33.466
X27.726 Y33.281
X27.611 Y33.101
X27.491 Y32.924
X27.365 Y32.751
X27.233 Y32.583
X27.095 Y32.419
X26.953 Y32.26
X26.804 Y32.106
X26.651 Y31.957
X26.493 Y31.814
X26.33 Y31.675
X26.162 Y31.543
X25.99 Y31.416
X25.814 Y31.295
X25.634 Y31.18
X25.449 Y31.072
X25.262 Y30.969
X25.071 Y30.873
X24.877 Y30.784
X24.68 Y30.701
X24.48 Y30.625
X24.278 Y30.555
X24.073 Y30.492
X23.867 Y30.437
X23.659 Y30.388
X23.449 Y30.346
X23.238 Y30.311
X23.026 Y30.284
X22.814 Y30.263
X22.6 Y30.25
X22.387 Y30.244
X22.173 Y30.245
X21.959 Y30.253
X21.746 Y30.268
X21.533 Y30.29
X21.322 Y30.319
X21.111 Y30.356
X20.902 Y30.399
X20.694 Y30.45
X20.488 Y30.507
X20.284 Y30.572
X20.083 Y30.643
X19.884 Y30.721
X19.688 Y30.806
X19.494 Y30.897
X19.304 Y30.995
X19.117 Y31.099
X18.934 Y31.209
X18.755 Y31.325
X18.579 Y31.447
X18.408 Y31.575
X18.241 Y31.708
X18.078 Y31.847
X17.921 Y31.992
X17.768 Y32.141
X17.62 Y32.296
X17.478 Y32.455
X17.341 Y32.619
X17.209 Y32.788
X17.083 Y32.96
X16.963 Y33.137
X16.849 Y33.318
X16.741 Y33.502
X16.638 Y33.69
X16.543 Y33.881
X16.453 Y34.075
X16.37 Y34.272
X16.294 Y34.472
X16.224 Y34.674
X16.162 Y34.878
X16.106 Y35.085
X16.057 Y35.293
X16.015 Y35.502
X15.98 Y35.713
X15.952 Y35.925
X15.931 Y36.138
X15.917 Y36.351
X15.911 Y36.565
Y36.779
X15.919 Y36.992
X15.934 Y37.205
X15.956 Y37.418
X15.985 Y37.63
X16.021 Y37.84
X16.064 Y38.05
X16.114 Y38.258
X16.171 Y38.464
X16.234 Y38.668
X16.304 Y38.87
X16.381 Y39.069
X16.465 Y39.266
X16.554 Y39.46
X16.651 Y39.651
X16.753 Y39.838
X16.862 Y40.022
X16.977 Y40.202
X17.098 Y40.379
X17.225 Y40.551
X17.358 Y40.718
X17.496 Y40.882
X17.639 Y41.04
X17.788 Y41.194
X17.941 Y41.342
X18.1 Y41.486
X18.263 Y41.624
X18.431 Y41.757
X18.602 Y41.884
X18.779 Y42.005
X18.959 Y42.12
X19.143 Y42.229
X19.33 Y42.332
X19.521 Y42.429
X19.714 Y42.519
X19.911 Y42.602
X20.11 Y42.68
X20.312 Y42.75
X20.516 Y42.814
X20.722 Y42.871
X20.93 Y42.921
X21.139 Y42.964
X21.35 Y43.
X21.562 Y43.029
X21.775 Y43.051
X21.988 Y43.066
X22.201 Y43.074
X22.415 Y43.075
X22.629 Y43.069
X22.842 Y43.056
X23.055 Y43.035
X23.267 Y43.008
X23.478 Y42.974
X23.688 Y42.933
X23.896 Y42.884
X24.102 Y42.829
X24.307 Y42.767
X24.509 Y42.698
X24.709 Y42.623
X24.907 Y42.541
X25.101 Y42.452
X25.293 Y42.357
X25.481 Y42.256
X25.666 Y42.148
X25.847 Y42.035
X26.024 Y41.915
X26.197 Y41.79
X26.366 Y41.659
X26.531 Y41.522
X26.69 Y41.38
X26.846 Y41.233
X26.996 Y41.081
X27.14 Y40.924
X27.28 Y40.762
X27.414 Y40.596
X27.543 Y40.425
X27.666 Y40.25
X27.784 Y40.072
X27.895 Y39.889
X28.001 Y39.704
X28.1 Y39.514
X28.194 Y39.322
X28.28 Y39.127
X28.361 Y38.929
X28.435 Y38.728
X28.502 Y38.525
X28.563 Y38.32
X28.617 Y38.113
X28.664 Y37.905
X28.705 Y37.695
X28.738 Y37.484
X28.765 Y37.272
X28.785 Y37.059
X28.798 Y36.846
X28.804 Y36.632
X28.802 Y36.418
X28.794 Y36.205
X28.779 Y35.991
X28.756 Y35.779
X28.727 Y35.567
X28.69 Y35.357
X28.647 Y35.147
X28.597 Y34.939
X28.54 Y34.733
X28.476 Y34.529
X28.405 Y34.328
X28.328 Y34.128
X28.245 Y33.931
X28.155 Y33.738
X28.058 Y33.547
X27.956 Y33.359
X27.847 Y33.175
X27.732 Y32.995
X27.611 Y32.819
X27.484 Y32.647
X27.352 Y32.478
X27.215 Y32.315
X27.072 Y32.156
X26.924 Y32.002
X26.771 Y31.852
X26.613 Y31.708
X26.45 Y31.569
X26.283 Y31.436
X26.112 Y31.308
X25.936 Y31.187
X25.757 Y31.071
X25.573 Y30.961
X25.387 Y30.857
X25.196 Y30.759
X25.003 Y30.668
X24.807 Y30.583
X24.608 Y30.504
X24.407 Y30.432
X24.204 Y30.366
X23.998 Y30.308
X23.791 Y30.256
X23.582 Y30.21
X23.372 Y30.172
X23.16 Y30.141
X22.948 Y30.117
X22.735 Y30.099
X22.521 Y30.089
X22.307 Y30.085
X22.094 Y30.089
X21.88 Y30.099
X21.667 Y30.116
X21.455 Y30.141
X21.243 Y30.172
X21.033 Y30.21
X20.824 Y30.254
X20.617 Y30.306
X20.411 Y30.365
X20.207 Y30.43
X20.006 Y30.502
X19.808 Y30.581
X19.612 Y30.667
X19.418 Y30.758
X19.228 Y30.856
X19.042 Y30.96
X18.858 Y31.07
X18.679 Y31.186
X18.503 Y31.307
X18.331 Y31.435
X18.163 Y31.567
X18. Y31.705
X17.842 Y31.849
X17.688 Y31.997
X17.539 Y32.151
X17.396 Y32.309
X17.257 Y32.472
X17.124 Y32.639
X16.996 Y32.811
X16.874 Y32.986
X16.758 Y33.165
X16.647 Y33.348
X16.542 Y33.534
X16.444 Y33.724
X16.351 Y33.917
X16.265 Y34.112
X16.185 Y34.311
X16.112 Y34.512
X16.045 Y34.715
X15.986 Y34.92
X15.932 Y35.127
X15.886 Y35.336
X15.846 Y35.546
X15.814 Y35.757
X15.788 Y35.969
X15.769 Y36.182
X15.757 Y36.395
X15.752 Y36.609
X15.753 Y36.823
X15.762 Y37.037
X15.778 Y37.25
X15.801 Y37.462
X15.831 Y37.674
X15.868 Y37.884
X15.911 Y38.094
X15.961 Y38.302
X16.018 Y38.508
X16.082 Y38.712
X16.152 Y38.914
X16.228 Y39.113
X16.311 Y39.31
X16.4 Y39.505
X16.496 Y39.696
X16.598 Y39.884
X16.705 Y40.068
X16.819 Y40.249
X16.939 Y40.426
X17.064 Y40.6
X17.195 Y40.768
X17.332 Y40.933
X17.473 Y41.093
X17.62 Y41.249
X17.772 Y41.399
X17.928 Y41.545
X18.089 Y41.685
X18.255 Y41.82
X18.425 Y41.95
X18.599 Y42.074
X18.777 Y42.192
X18.959 Y42.305
X19.144 Y42.411
X19.333 Y42.512
X19.525 Y42.606
X19.72 Y42.694
X19.917 Y42.775
X20.117 Y42.85
X20.32 Y42.919
X20.524 Y42.981
X20.731 Y43.037
X20.939 Y43.085
X21.149 Y43.127
X21.359 Y43.162
X21.571 Y43.19
X21.784 Y43.212
X21.997 Y43.226
X22.211 Y43.233
X22.425 Y43.234
X22.638 Y43.227
X22.852 Y43.214
X23.065 Y43.194
X23.277 Y43.167
X23.488 Y43.133
X23.697 Y43.092
X23.906 Y43.045
X24.113 Y42.991
X24.318 Y42.93
X24.52 Y42.862
X24.721 Y42.788
X24.919 Y42.707
X25.114 Y42.62
X25.307 Y42.527
X25.496 Y42.428
X25.682 Y42.322
X25.864 Y42.211
X26.043 Y42.094
X26.218 Y41.971
X26.389 Y41.842
X26.555 Y41.708
X26.717 Y41.569
X26.875 Y41.424
X27.027 Y41.275
X27.175 Y41.12
X27.318 Y40.961
X27.456 Y40.798
X27.588 Y40.63
X27.715 Y40.458
X27.836 Y40.282
X27.952 Y40.102
X28.062 Y39.919
X28.166 Y39.732
X28.264 Y39.542
X28.356 Y39.349
X28.441 Y39.153
X28.521 Y38.955
X28.594 Y38.754
X28.66 Y38.551
X28.72 Y38.346
X28.774 Y38.139
X28.821 Y37.93
X28.861 Y37.72
X28.895 Y37.509
X28.922 Y37.297
X28.942 Y37.084
X28.955 Y36.871
X28.962 Y36.657
X28.961 Y36.443
X28.954 Y36.23
X28.939 Y36.017
X28.918 Y35.804
X28.89 Y35.592
X28.855 Y35.381
X28.814 Y35.171
X28.766 Y34.963
X28.711 Y34.757
X28.649 Y34.552
X28.581 Y34.349
X28.507 Y34.149
X28.426 Y33.951
X28.338 Y33.756
X28.245 Y33.564
X28.145 Y33.375
X28.039 Y33.189
X27.928 Y33.007
X27.81 Y32.828
X27.687 Y32.653
X27.558 Y32.483
X27.424 Y32.316
X27.284 Y32.154
X27.14 Y31.997
X26.99 Y31.844
X26.836 Y31.696
X26.677 Y31.554
X26.513 Y31.416
X26.345 Y31.284
X26.173 Y31.157
X25.997 Y31.036
X25.817 Y30.921
X25.633 Y30.812
X25.446 Y30.708
X25.255 Y30.611
X25.062 Y30.52
X24.866 Y30.435
X24.667 Y30.357
X24.466 Y30.284
X24.262 Y30.219
X24.057 Y30.16
X23.85 Y30.107
X23.641 Y30.061
X23.431 Y30.022
X23.22 Y29.989
X23.007 Y29.964
X22.795 Y29.945
X22.581 Y29.933
X22.367 Y29.928
X22.154 Y29.929
X21.94 Y29.937
X21.727 Y29.952
X21.514 Y29.974
X21.302 Y30.002
X21.091 Y30.038
X20.882 Y30.08
X20.674 Y30.128
X20.467 Y30.184
X20.263 Y30.246
X20.06 Y30.314
X19.86 Y30.389
X19.663 Y30.471
X19.468 Y30.559
X19.276 Y30.653
X19.087 Y30.753
X18.901 Y30.859
X18.719 Y30.971
X18.54 Y31.088
X18.366 Y31.211
X18.195 Y31.34
X18.028 Y31.474
X17.866 Y31.613
X17.708 Y31.757
X17.555 Y31.906
X17.407 Y32.06
X17.264 Y32.219
X17.126 Y32.382
X16.993 Y32.55
X16.865 Y32.721
X16.743 Y32.897
X16.627 Y33.076
X16.516 Y33.259
X16.411 Y33.445
X16.312 Y33.634
X16.219 Y33.827
X16.132 Y34.022
X16.051 Y34.22
X15.977 Y34.42
X15.909 Y34.623
X15.847 Y34.828
X15.792 Y35.034
X15.744 Y35.243
X15.703 Y35.452
X15.668 Y35.663
X15.639 Y35.875
X15.618 Y36.088
X15.603 Y36.301
X15.595 Y36.514
X15.594 Y36.728
X15.599 Y36.942
X15.612 Y37.155
X15.631 Y37.368
X15.657 Y37.58
X15.69 Y37.792
X15.73 Y38.002
X15.776 Y38.21
X15.829 Y38.418
X15.888 Y38.623
X15.953 Y38.826
X16.025 Y39.028
X16.103 Y39.227
X16.188 Y39.423
X16.279 Y39.617
X16.375 Y39.807
X16.478 Y39.995
X16.587 Y40.179
X16.701 Y40.359
X16.822 Y40.536
X16.948 Y40.709
X17.079 Y40.877
X17.216 Y41.042
X17.358 Y41.201
X17.504 Y41.357
X17.656 Y41.508
X17.812 Y41.653
X17.973 Y41.794
X18.138 Y41.93
X18.308 Y42.06
X18.481 Y42.185
X18.659 Y42.304
X18.84 Y42.418
X19.024 Y42.525
X19.212 Y42.627
X19.403 Y42.723
X19.597 Y42.813
X19.794 Y42.896
X19.994 Y42.973
X20.195 Y43.044
X20.399 Y43.109
X20.605 Y43.167
X20.812 Y43.219
X21.021 Y43.264
X21.231 Y43.302
X21.443 Y43.333
X21.655 Y43.358
X21.868 Y43.376
X22.082 Y43.388
X22.295 Y43.392
X22.509 Y43.39
X22.723 Y43.381
X22.936 Y43.366
X23.148 Y43.343
X23.36 Y43.314
X23.571 Y43.279
X23.781 Y43.236
X23.989 Y43.188
X24.195 Y43.132
X24.4 Y43.07
X24.602 Y43.002
X24.802 Y42.927
X25. Y42.845
X25.195 Y42.758
X25.387 Y42.664
X25.576 Y42.565
X25.762 Y42.459
X25.945 Y42.348
X26.124 Y42.231
X26.299 Y42.108
X26.47 Y41.98
X26.637 Y41.846
X26.799 Y41.708
X26.957 Y41.564
X27.111 Y41.415
X27.26 Y41.262
X27.404 Y41.103
X27.542 Y40.941
X27.676 Y40.774
X27.805 Y40.603
X27.928 Y40.429
X28.045 Y40.25
X28.157 Y40.068
X28.264 Y39.882
X28.364 Y39.694
X28.459 Y39.502
X28.547 Y39.308
X28.63 Y39.11
X28.706 Y38.911
X28.776 Y38.709
X28.839 Y38.505
X28.897 Y38.299
X28.948 Y38.091
X28.992 Y37.882
X29.03 Y37.672
X29.061 Y37.46
X29.086 Y37.248
X29.104 Y37.035
X29.116 Y36.821
X29.12 Y36.608
X29.118 Y36.394
X29.11 Y36.18
X29.094 Y35.967
X29.072 Y35.755
X29.043 Y35.543
X29.008 Y35.332
X28.966 Y35.122
X28.917 Y34.914
X28.862 Y34.708
X28.8 Y34.503
X28.732 Y34.3
X28.658 Y34.1
X28.577 Y33.902
X28.49 Y33.707
X28.397 Y33.514
X28.298 Y33.325
X28.193 Y33.139
X28.082 Y32.956
X27.966 Y32.776
X27.844 Y32.601
X27.716 Y32.429
X27.584 Y32.262
X27.446 Y32.099
X27.303 Y31.94
X27.155 Y31.786
X27.002 Y31.636
X26.845 Y31.491
X26.683 Y31.351
X26.517 Y31.217
X26.346 Y31.088
X26.172 Y30.964
X25.994 Y30.846
X25.812 Y30.733
X25.627 Y30.627
X25.438 Y30.526
X25.247 Y30.431
X25.052 Y30.343
X24.855 Y30.26
X24.655 Y30.184
X24.454 Y30.113
X24.25 Y30.05
X24.044 Y29.992
X23.836 Y29.941
X23.627 Y29.897
X23.417 Y29.859
X23.205 Y29.827
X22.993 Y29.803
X22.78 Y29.785
X22.566 Y29.773
X22.353 Y29.769
X22.139 Y29.771
X21.925 Y29.779
X21.712 Y29.794
X21.499 Y29.816
X21.288 Y29.845
X21.077 Y29.879
X20.867 Y29.921
X20.659 Y29.969
X20.452 Y30.024
X20.247 Y30.085
X20.044 Y30.152
X19.844 Y30.226
X19.646 Y30.306
X19.45 Y30.393
X19.257 Y30.485
X19.068 Y30.583
X18.881 Y30.688
X18.698 Y30.797
X18.518 Y30.913
X18.341 Y31.034
X18.169 Y31.16
X18.001 Y31.292
X17.836 Y31.429
X17.677 Y31.571
X17.521 Y31.717
X17.37 Y31.869
X17.225 Y32.025
X17.084 Y32.186
X16.948 Y32.351
X16.817 Y32.52
X16.691 Y32.693
X16.571 Y32.87
X16.456 Y33.05
X16.347 Y33.234
X16.244 Y33.421
X16.146 Y33.611
X16.054 Y33.804
X15.969 Y34.
X15.889 Y34.198
X15.816 Y34.399
X15.749 Y34.602
X15.688 Y34.807
X15.634 Y35.014
X15.586 Y35.222
X15.545 Y35.432
X15.51 Y35.643
X15.482 Y35.855
X15.461 Y36.068
X15.446 Y36.281
X15.437 Y36.494
X15.435 Y36.708
X15.44 Y36.922
X15.452 Y37.135
X15.47 Y37.348
X15.495 Y37.561
X15.527 Y37.772
X15.565 Y37.982
X15.609 Y38.191
X15.66 Y38.399
X15.717 Y38.605
X15.781 Y38.809
X15.851 Y39.011
X15.927 Y39.211
X16.009 Y39.408
X16.097 Y39.603
X16.191 Y39.795
X16.291 Y39.984
X16.397 Y40.17
X16.509 Y40.352
X16.626 Y40.531
X16.749 Y40.705
X16.877 Y40.876
X17.011 Y41.043
X17.149 Y41.206
X17.293 Y41.364
X17.441 Y41.518
X17.594 Y41.667
X17.752 Y41.812
X17.914 Y41.951
X18.08 Y42.086
X18.25 Y42.215
X18.425 Y42.339
X18.603 Y42.457
X18.784 Y42.57
X18.969 Y42.677
X19.158 Y42.778
X19.349 Y42.873
X19.543 Y42.962
X19.74 Y43.045
X19.94 Y43.123
X20.141 Y43.193
X20.345 Y43.258
X20.551 Y43.317
X20.758 Y43.369
X20.967 Y43.414
X21.177 Y43.453
X21.388 Y43.486
X21.601 Y43.512
X21.813 Y43.531
X22.027 Y43.544
X22.24 Y43.55
X22.454 Y43.549
X22.668 Y43.542
X22.881 Y43.529
X23.094 Y43.509
X23.306 Y43.482
X23.517 Y43.449
X23.727 Y43.409
X23.936 Y43.363
X24.143 Y43.31
X24.349 Y43.251
X24.552 Y43.186
X24.754 Y43.114
X24.953 Y43.037
X25.149 Y42.953
X25.343 Y42.862
X25.534 Y42.766
X25.722 Y42.665
X25.907 Y42.557
X26.088 Y42.444
X26.266 Y42.325
X26.44 Y42.201
X26.61 Y42.071
X26.776 Y41.937
X26.937 Y41.797
X27.095 Y41.652
X27.248 Y41.503
X27.396 Y41.348
X27.539 Y41.19
X27.677 Y41.027
X27.811 Y40.86
X27.939 Y40.689
X28.061 Y40.514
X28.179 Y40.335
X28.291 Y40.153
X28.397 Y39.968
X28.498 Y39.779
X28.593 Y39.588
X28.682 Y39.393
X28.765 Y39.196
X28.843 Y38.997
X28.914 Y38.795
X28.978 Y38.592
X29.037 Y38.386
X29.089 Y38.179
X29.135 Y37.97
X29.175 Y37.76
X29.208 Y37.549
X29.235 Y37.337
X29.256 Y37.124
X29.27 Y36.911
X29.277 Y36.697
X29.278 Y36.483
X29.272 Y36.27
X29.26 Y36.056
X29.241 Y35.843
X29.216 Y35.631
X29.184 Y35.42
X29.145 Y35.21
X29.1 Y35.001
X29.049 Y34.793
X28.991 Y34.587
X28.927 Y34.383
X28.857 Y34.181
X28.781 Y33.982
X28.699 Y33.784
X28.61 Y33.59
X28.516 Y33.398
X28.416 Y33.209
X28.31 Y33.024
X28.198 Y32.841
X28.081 Y32.663
X27.958 Y32.488
X27.83 Y32.316
X27.696 Y32.149
X27.558 Y31.986
X27.415 Y31.828
X27.267 Y31.674
X27.114 Y31.524
X26.957 Y31.379
X26.795 Y31.239
X26.63 Y31.104
X26.46 Y30.975
X26.286 Y30.85
X26.108 Y30.731
X25.927 Y30.618
X25.742 Y30.51
X25.554 Y30.408
X25.363 Y30.312
X25.17 Y30.222
X24.973 Y30.138
X24.774 Y30.059
X24.573 Y29.987
X24.37 Y29.921
X24.165 Y29.861
X23.958 Y29.808
X23.749 Y29.76
X23.539 Y29.72
X23.328 Y29.685
X23.117 Y29.657
X22.904 Y29.636
X22.691 Y29.621
X22.477 Y29.613
X22.263 Y29.611
X22.05 Y29.615
X21.836 Y29.626
X21.623 Y29.644
X21.411 Y29.668
X21.199 Y29.698
X20.988 Y29.735
X20.779 Y29.778
X20.571 Y29.828
X20.365 Y29.884
X20.16 Y29.946
X19.958 Y30.015
X19.758 Y30.089
X19.56 Y30.17
X19.365 Y30.257
X19.172 Y30.35
X18.983 Y30.449
X18.796 Y30.554
X18.613 Y30.664
X18.433 Y30.779
X18.257 Y30.9
X18.084 Y31.026
X17.915 Y31.157
X17.751 Y31.294
X17.59 Y31.435
X17.434 Y31.581
X17.283 Y31.732
X17.136 Y31.887
X16.994 Y32.047
X16.857 Y32.211
X16.725 Y32.379
X16.598 Y32.551
X16.476 Y32.727
X16.36 Y32.906
X16.249 Y33.089
X16.143 Y33.275
X16.043 Y33.464
X15.949 Y33.656
X15.861 Y33.85
X15.779 Y34.048
X15.702 Y34.247
X15.632 Y34.449
X15.568 Y34.653
X15.51 Y34.859
X15.459 Y35.066
X15.414 Y35.275
X15.375 Y35.486
X15.343 Y35.697
X15.317 Y35.909
X15.297 Y36.122
X15.284 Y36.335
X15.278 Y36.549
Y36.763
X15.284 Y36.976
X15.297 Y37.19
X15.316 Y37.403
X15.342 Y37.615
X15.375 Y37.826
X15.414 Y38.036
X15.459 Y38.245
X15.51 Y38.453
X15.568 Y38.659
X15.632 Y38.863
X15.702 Y39.065
X15.778 Y39.264
X15.859 Y39.462
X15.947 Y39.657
X16.041 Y39.849
X16.14 Y40.038
X16.246 Y40.224
X16.356 Y40.407
X16.473 Y40.586
X16.595 Y40.762
X16.722 Y40.934
X16.854 Y41.102
X16.991 Y41.265
X17.134 Y41.425
X17.281 Y41.58
X17.432 Y41.731
X17.588 Y41.877
X17.749 Y42.018
X17.913 Y42.155
X18.082 Y42.286
X18.254 Y42.412
X18.431 Y42.533
X18.611 Y42.649
X18.794 Y42.759
X18.981 Y42.863
X19.17 Y42.961
X19.363 Y43.054
X19.558 Y43.141
X19.756 Y43.222
X19.956 Y43.297
X20.159 Y43.366
X20.363 Y43.428
X20.569 Y43.485
X20.777 Y43.535
X20.986 Y43.579
X21.196 Y43.617
X21.408 Y43.648
X21.62 Y43.673
X21.833 Y43.691
X22.047 Y43.703
X22.26 Y43.709
X22.474 Y43.708
X22.688 Y43.7
X22.901 Y43.686
X23.114 Y43.666
X23.326 Y43.639
X23.537 Y43.606
X23.747 Y43.567
X23.956 Y43.521
X24.163 Y43.469
X24.369 Y43.411
X24.573 Y43.346
X24.774 Y43.275
X24.974 Y43.199
X25.171 Y43.116
X25.365 Y43.027
X25.557 Y42.932
X25.746 Y42.832
X25.932 Y42.726
X26.114 Y42.615
X26.293 Y42.498
X26.468 Y42.376
X26.64 Y42.248
X26.807 Y42.115
X26.971 Y41.978
X27.13 Y41.835
X27.285 Y41.688
X27.436 Y41.536
X27.581 Y41.38
X27.722 Y41.219
X27.859 Y41.054
X27.99 Y40.885
X28.116 Y40.713
X28.237 Y40.537
X28.352 Y40.357
X28.462 Y40.174
X28.567 Y39.987
X28.666 Y39.798
X28.76 Y39.606
X28.848 Y39.411
X28.929 Y39.213
X29.005 Y39.013
X29.075 Y38.811
X29.139 Y38.607
X29.197 Y38.402
X29.249 Y38.194
X29.294 Y37.985
X29.333 Y37.775
X29.366 Y37.564
X29.393 Y37.352
X29.414 Y37.139
X29.428 Y36.926
X29.435 Y36.712
X29.437 Y36.499
X29.431 Y36.285
X29.42 Y36.071
X29.402 Y35.858
X29.377 Y35.646
X29.346 Y35.435
X29.309 Y35.224
X29.266 Y35.015
X29.216 Y34.807
X29.16 Y34.601
X29.098 Y34.396
X29.029 Y34.193
X28.955 Y33.993
X28.875 Y33.795
X28.789 Y33.599
X28.697 Y33.406
X28.599 Y33.216
X28.496 Y33.029
X28.386 Y32.845
X28.272 Y32.665
X28.152 Y32.488
X28.027 Y32.315
X27.896 Y32.145
X27.761 Y31.98
X27.621 Y31.819
X27.476 Y31.662
X27.326 Y31.509
X27.172 Y31.361
X27.013 Y31.218
X26.85 Y31.079
X26.684 Y30.946
X26.513 Y30.817
X26.338 Y30.694
X26.16 Y30.576
X25.978 Y30.464
X25.793 Y30.357
X25.604 Y30.255
X25.413 Y30.16
X25.219 Y30.07
X25.023 Y29.986
X24.824 Y29.908
X24.622 Y29.836
X24.419 Y29.77
X24.214 Y29.71
X24.007 Y29.657
X23.799 Y29.609
X23.589 Y29.568
X23.378 Y29.533
X23.166 Y29.504
X22.954 Y29.482
X22.74 Y29.466
X22.527 Y29.456
X22.313 Y29.453
X22.099 Y29.456
X21.886 Y29.465
X21.673 Y29.481
X21.46 Y29.503
X21.248 Y29.531
X21.037 Y29.565
X20.827 Y29.606
X20.619 Y29.653
X20.412 Y29.706
X20.207 Y29.766
X20.003 Y29.832
X19.802 Y29.903
X19.603 Y29.981
X19.406 Y30.065
X19.212 Y30.155
X19.021 Y30.25
X18.832 Y30.351
X18.647 Y30.458
X18.465 Y30.57
X18.286 Y30.687
X18.111 Y30.809
X17.94 Y30.937
X17.772 Y31.07
X17.608 Y31.207
X17.449 Y31.35
X17.294 Y31.497
X17.143 Y31.649
X16.997 Y31.805
X16.856 Y31.965
X16.719 Y32.129
X16.588 Y32.298
X16.461 Y32.47
X16.34 Y32.646
X16.223 Y32.825
X16.112 Y33.008
X16.007 Y33.194
X15.907 Y33.383
X15.812 Y33.575
X15.724 Y33.769
X15.641 Y33.966
X15.564 Y34.166
X15.493 Y34.367
X15.428 Y34.571
X15.369 Y34.776
X15.316 Y34.983
X15.27 Y35.192
X15.229 Y35.402
X15.195 Y35.613
X15.167 Y35.825
X15.146 Y36.038
X15.131 Y36.251
X15.122 Y36.464
X15.119 Y36.678
X15.123 Y36.892
X15.133 Y37.105
X15.149 Y37.319
X15.172 Y37.531
X15.201 Y37.743
X15.237 Y37.954
X15.279 Y38.163
X15.326 Y38.372
X15.38 Y38.578
X15.441 Y38.784
X15.507 Y38.987
X15.579 Y39.188
X15.656 Y39.387
X15.74 Y39.584
X15.83 Y39.778
X15.925 Y39.969
X16.026 Y40.158
X16.132 Y40.343
X16.244 Y40.526
X16.361 Y40.704
X16.484 Y40.879
X16.611 Y41.051
X16.744 Y41.218
X16.882 Y41.382
X17.025 Y41.541
X17.172 Y41.696
X17.324 Y41.846
X17.48 Y41.993
X17.64 Y42.134
X17.804 Y42.271
X17.973 Y42.402
X18.145 Y42.529
X18.321 Y42.65
X18.5 Y42.766
X18.683 Y42.877
X18.869 Y42.982
X19.058 Y43.082
X19.25 Y43.176
X19.445 Y43.264
X19.642 Y43.347
X19.842 Y43.423
X20.043 Y43.494
X20.247 Y43.559
X20.453 Y43.618
X20.66 Y43.67
X20.869 Y43.717
X21.078 Y43.757
X21.289 Y43.791
X21.501 Y43.819
X21.714 Y43.84
X21.927 Y43.856
X22.141 Y43.865
X22.355 Y43.867
X22.568 Y43.863
X22.782 Y43.853
X22.995 Y43.837
X23.208 Y43.814
X23.419 Y43.785
X23.63 Y43.75
X23.84 Y43.709
X24.048 Y43.662
X24.255 Y43.608
X24.461 Y43.548
X24.664 Y43.482
X24.865 Y43.411
X25.064 Y43.333
X25.261 Y43.249
X25.455 Y43.16
X25.647 Y43.065
X25.835 Y42.964
X26.021 Y42.858
X26.203 Y42.746
X26.382 Y42.629
X26.557 Y42.507
X26.729 Y42.379
X26.897 Y42.247
X27.061 Y42.11
X27.22 Y41.968
X27.376 Y41.821
X27.527 Y41.67
X27.673 Y41.514
X27.815 Y41.354
X27.952 Y41.19
X28.084 Y41.022
X28.212 Y40.85
X28.334 Y40.675
X28.451 Y40.496
X28.563 Y40.314
X28.67 Y40.129
X28.771 Y39.94
X28.866 Y39.749
X28.956 Y39.555
X29.041 Y39.359
X29.119 Y39.16
X29.192 Y38.959
X29.259 Y38.756
X29.32 Y38.551
X29.375 Y38.345
X29.424 Y38.137
X29.467 Y37.927
X29.503 Y37.717
X29.534 Y37.505
X29.558 Y37.293
X29.577 Y37.08
X29.589 Y36.866
X29.595 Y36.653
X29.594 Y36.439
X29.587 Y36.225
X29.574 Y36.012
X29.555 Y35.799
X29.529 Y35.587
X29.497 Y35.375
X29.459 Y35.165
X29.415 Y34.956
X29.365 Y34.748
X29.308 Y34.542
X29.246 Y34.338
X29.177 Y34.135
X29.103 Y33.935
X29.022 Y33.737
X28.936 Y33.541
X28.845 Y33.348
X28.747 Y33.158
X28.644 Y32.97
X28.536 Y32.786
X28.422 Y32.605
X28.303 Y32.428
X28.178 Y32.254
X28.049 Y32.084
X27.915 Y31.917
X27.776 Y31.755
X27.632 Y31.597
X27.484 Y31.443
X27.331 Y31.294
X27.174 Y31.149
X27.012 Y31.008
X26.847 Y30.873
X26.678 Y30.742
X26.504 Y30.617
X26.328 Y30.497
X26.148 Y30.382
X25.964 Y30.272
X25.777 Y30.168
X25.588 Y30.07
X25.395 Y29.977
X25.2 Y29.889
X25.002 Y29.808
X24.803 Y29.732
X24.601 Y29.662
X24.397 Y29.598
X24.191 Y29.54
X23.983 Y29.488
X23.775 Y29.442
X23.565 Y29.403
X23.354 Y29.369
X23.142 Y29.341
X22.929 Y29.32
X22.716 Y29.305
X22.502 Y29.296
X22.288 Y29.294
X22.075 Y29.298
X21.861 Y29.307
X21.648 Y29.324
X21.435 Y29.346
X21.223 Y29.374
X21.013 Y29.409
X20.803 Y29.449
X20.594 Y29.496
X20.387 Y29.549
X20.182 Y29.608
X19.978 Y29.673
X19.776 Y29.744
X19.577 Y29.821
X19.38 Y29.904
X19.185 Y29.992
X18.993 Y30.087
X18.804 Y30.186
X18.618 Y30.291
X18.435 Y30.402
X18.255 Y30.517
X18.079 Y30.638
X17.906 Y30.764
X17.737 Y30.895
X17.572 Y31.031
X17.411 Y31.171
X17.254 Y31.316
X17.101 Y31.466
X16.953 Y31.62
X16.809 Y31.778
X16.67 Y31.94
X16.536 Y32.106
X16.406 Y32.277
X16.282 Y32.45
X16.162 Y32.628
X16.048 Y32.808
X15.939 Y32.992
X15.835 Y33.179
X15.737 Y33.369
X15.644 Y33.561
X15.557 Y33.756
X15.475 Y33.954
X15.399 Y34.154
X15.329 Y34.356
X15.265 Y34.56
X15.207 Y34.766
X15.156 Y34.973
X15.11 Y35.182
X15.07 Y35.392
X15.036 Y35.603
X15.009 Y35.815
X14.988 Y36.028
X14.972 Y36.241
X14.963 Y36.454
X14.961 Y36.668
X14.964 Y36.882
X14.974 Y37.095
X14.99 Y37.309
X15.012 Y37.521
X15.04 Y37.733
X15.074 Y37.944
X15.115 Y38.154
X15.162 Y38.362
X15.214 Y38.57
X15.273 Y38.775
X15.337 Y38.979
X15.407 Y39.181
X15.484 Y39.381
X15.565 Y39.578
X15.653 Y39.773
X15.746 Y39.966
X15.844 Y40.155
X15.948 Y40.342
X16.058 Y40.526
X16.172 Y40.706
X16.292 Y40.883
X16.418 Y41.056
X16.548 Y41.226
X16.683 Y41.392
X16.823 Y41.553
X16.967 Y41.711
X17.116 Y41.864
X17.269 Y42.013
X17.427 Y42.158
X17.588 Y42.298
X17.754 Y42.433
X17.923 Y42.563
X18.097 Y42.688
X18.273 Y42.809
X18.453 Y42.924
X18.637 Y43.034
X18.823 Y43.138
X19.013 Y43.237
X19.205 Y43.33
X19.4 Y43.418
X19.598 Y43.5
X19.797 Y43.576
X19.999 Y43.646
X20.203 Y43.711
X20.408 Y43.77
X20.616 Y43.823
X20.824 Y43.869
X21.034 Y43.91
X21.245 Y43.945
X21.457 Y43.973
X21.669 Y43.995
X21.882 Y44.011
X22.096 Y44.021
X22.31 Y44.025
X22.523 Y44.023
X22.737 Y44.014
X22.95 Y43.999
X23.163 Y43.978
X23.375 Y43.952
X23.586 Y43.918
X23.796 Y43.879
X24.005 Y43.834
X24.213 Y43.783
X24.419 Y43.726
X24.623 Y43.663
X24.825 Y43.593
X25.026 Y43.519
X25.224 Y43.438
X25.419 Y43.351
X25.612 Y43.259
X25.802 Y43.162
X25.989 Y43.059
X26.174 Y42.95
X26.355 Y42.837
X26.532 Y42.718
X26.706 Y42.594
X26.877 Y42.465
X27.044 Y42.331
X27.206 Y42.193
X27.365 Y42.049
X27.52 Y41.902
X27.67 Y41.749
X27.816 Y41.593
X27.957 Y41.433
X28.093 Y41.268
X28.225 Y41.1
X28.352 Y40.928
X28.474 Y40.752
X28.59 Y40.573
X28.702 Y40.391
X28.808 Y40.205
X28.91 Y40.017
X29.005 Y39.826
X29.096 Y39.632
X29.18 Y39.436
X29.259 Y39.237
X29.333 Y39.037
X29.4 Y38.834
X29.462 Y38.629
X29.518 Y38.423
X29.568 Y38.215
X29.613 Y38.006
X29.651 Y37.796
X29.683 Y37.584
X29.709 Y37.372
X29.729 Y37.159
X29.743 Y36.946
X29.751 Y36.732
X29.753 Y36.519
X29.749 Y36.305
X29.738 Y36.091
X29.721 Y35.878
X29.699 Y35.666
X29.67 Y35.454
X29.635 Y35.243
X29.594 Y35.033
X29.547 Y34.825
X29.493 Y34.618
X29.434 Y34.412
X29.37 Y34.209
X29.299 Y34.007
X29.222 Y33.807
X29.14 Y33.61
X29.052 Y33.415
X28.959 Y33.223
X28.86 Y33.033
X28.756 Y32.847
X28.646 Y32.663
X28.531 Y32.483
X28.411 Y32.306
X28.286 Y32.133
X28.156 Y31.963
X28.021 Y31.797
X27.882 Y31.635
X27.737 Y31.478
X27.589 Y31.324
X27.436 Y31.175
X27.279 Y31.03
X27.117 Y30.89
X26.952 Y30.754
X26.783 Y30.623
X26.61 Y30.498
X26.433 Y30.377
X26.254 Y30.261
X26.071 Y30.151
X25.884 Y30.046
X25.695 Y29.947
X25.503 Y29.853
X25.309 Y29.764
X25.112 Y29.681
X24.912 Y29.604
X24.711 Y29.532
X24.507 Y29.467
X24.302 Y29.407
X24.095 Y29.353
X23.887 Y29.305
X23.678 Y29.262
X23.467 Y29.226
X23.255 Y29.196
X23.043 Y29.172
X22.83 Y29.154
X22.616 Y29.142
X22.403 Y29.136
X22.189 Y29.137
X21.975 Y29.143
X21.762 Y29.156
X21.549 Y29.174
X21.337 Y29.199
X21.125 Y29.229
X20.914 Y29.266
X20.705 Y29.308
X20.497 Y29.357
X20.29 Y29.412
X20.085 Y29.472
X19.882 Y29.538
X19.681 Y29.611
X19.482 Y29.689
X19.285 Y29.772
X19.091 Y29.862
X18.899 Y29.956
X18.71 Y30.057
X18.525 Y30.162
X18.342 Y30.273
X18.162 Y30.389
X17.986 Y30.51
X17.813 Y30.636
X17.644 Y30.767
X17.479 Y30.902
X17.317 Y31.042
X17.16 Y31.187
X17.007 Y31.336
X16.858 Y31.489
X16.714 Y31.647
X16.574 Y31.809
X16.439 Y31.974
X16.308 Y32.144
X16.182 Y32.317
X16.062 Y32.493
X15.946 Y32.673
X15.835 Y32.856
X15.73 Y33.042
X15.63 Y33.23
X15.535 Y33.422
X15.446 Y33.616
X15.362 Y33.813
X15.283 Y34.012
X15.211 Y34.213
X15.144 Y34.416
X15.083 Y34.621
X15.028 Y34.827
X14.979 Y35.035
X14.936 Y35.245
X14.899 Y35.455
X14.868 Y35.667
X14.843 Y35.879
X14.824 Y36.092
X14.811 Y36.305
X14.804 Y36.519
X14.803 Y36.733
X14.808 Y36.946
X14.819 Y37.16
X14.836 Y37.373
X14.86 Y37.585
X14.889 Y37.797
X14.925 Y38.008
X14.966 Y38.218
X15.014 Y38.426
X15.067 Y38.633
X15.126 Y38.838
X15.191 Y39.042
X15.262 Y39.244
X15.338 Y39.444
X15.42 Y39.641
X15.507 Y39.836
X15.6 Y40.029
X15.698 Y40.218
X15.802 Y40.405
X15.911 Y40.589
X16.025 Y40.77
X16.144 Y40.947
X16.269 Y41.121
X16.398 Y41.291
X16.532 Y41.458
X16.671 Y41.62
X16.814 Y41.779
X16.962 Y41.933
X17.114 Y42.084
X17.27 Y42.23
X17.431 Y42.371
X17.595 Y42.508
X17.763 Y42.64
X17.935 Y42.767
X18.11 Y42.89
X18.289 Y43.007
X18.471 Y43.119
X18.656 Y43.226
X18.844 Y43.328
X19.035 Y43.424
X19.228 Y43.515
X19.424 Y43.6
X19.623 Y43.679
X19.823 Y43.753
X20.026 Y43.822
X20.23 Y43.884
X20.436 Y43.941
X20.644 Y43.992
X20.853 Y44.037
X21.063 Y44.076
X21.274 Y44.109
X21.486 Y44.136
X21.699 Y44.157
X21.912 Y44.172
X22.126 Y44.181
X22.339 Y44.184
X22.553 Y44.181
X22.767 Y44.171
X22.98 Y44.156
X23.193 Y44.135
X23.405 Y44.107
X23.616 Y44.074
X23.826 Y44.035
X24.035 Y43.99
X24.242 Y43.939
X24.448 Y43.882
X24.653 Y43.819
X24.855 Y43.751
X25.056 Y43.677
X25.254 Y43.597
X25.45 Y43.511
X25.643 Y43.42
X25.834 Y43.324
X26.022 Y43.222
X26.207 Y43.115
X26.389 Y43.002
X26.568 Y42.885
X26.743 Y42.763
X26.915 Y42.635
X27.083 Y42.503
X27.247 Y42.366
X27.407 Y42.225
X27.563 Y42.079
X27.716 Y41.929
X27.863 Y41.775
X28.007 Y41.616
X28.146 Y41.454
X28.28 Y41.287
X28.409 Y41.117
X28.534 Y40.943
X28.654 Y40.766
X28.769 Y40.586
X28.878 Y40.403
X28.983 Y40.216
X29.082 Y40.027
X29.176 Y39.835
X29.265 Y39.641
X29.348 Y39.444
X29.426 Y39.245
X29.498 Y39.043
X29.565 Y38.84
X29.625 Y38.635
X29.68 Y38.429
X29.73 Y38.221
X29.773 Y38.011
X29.811 Y37.801
X29.842 Y37.59
X29.868 Y37.377
X29.888 Y37.164
X29.902 Y36.951
X29.91 Y36.738
X29.911 Y36.524
X29.907 Y36.31
X29.897 Y36.097
X29.881 Y35.883
X29.859 Y35.671
X29.831 Y35.459
X29.796 Y35.248
X29.756 Y35.038
X29.71 Y34.829
X29.658 Y34.622
X29.601 Y34.416
X29.537 Y34.212
X29.468 Y34.01
X29.393 Y33.809
X29.313 Y33.611
X29.227 Y33.416
X29.135 Y33.222
X29.038 Y33.032
X28.936 Y32.844
X28.829 Y32.659
X28.716 Y32.478
X28.598 Y32.299
X28.476 Y32.124
X28.348 Y31.953
X28.216 Y31.785
X28.079 Y31.621
X27.937 Y31.461
X27.791 Y31.305
X27.641 Y31.153
X27.486 Y31.005
X27.327 Y30.862
X27.165 Y30.723
X26.998 Y30.589
X26.828 Y30.46
X26.654 Y30.335
X26.477 Y30.216
X26.296 Y30.102
X26.113 Y29.992
X25.926 Y29.888
X25.736 Y29.79
X25.544 Y29.696
X25.349 Y29.609
X25.152 Y29.526
X24.952 Y29.45
X24.751 Y29.378
X24.547 Y29.313
X24.342 Y29.253
X24.135 Y29.199
X23.927 Y29.151
X23.717 Y29.109
X23.507 Y29.072
X23.295 Y29.042
X23.083 Y29.017
X22.87 Y28.998
X22.656 Y28.986
X22.443 Y28.979
